; This gcode is generated by my specialised python script for my PCB manufacturer project :))

; Machine Initialization Sequence...

G21 ; to set metric units
G90 ; to set absolute mode , G91 for incremental mode
G94 ; To set the active feed rate mode to units per minute mode

M5 ; disabling spindle PWM
C0 ; Choosing the empty tool slot in the multiplexer circuits

B1 ; Turn ON Machine

$H ; Homing :)
G10 P0 L20 X0.0Y0.0Z0.0 ; Force Reset current coordinates after homing


; The following gcode is the PCB holes drill gcode

; Getting and Activating Tool-2, The Tool.Spindle
G00X165.0Y91.0Z12.0 ; Go to Tool-2 Home Pos
G00X188 ; Enter Female Kinematic Mount Home Pos
A1 ; Latch on Kinematic Mount
G4 P5 ; Wait for Kinematic Mount to fully attach
G00X92 ; Exit Female Kinematic Mount Home Pos
#TODO X0.0Y0.0Z0.0 ;  ;Add tool offset coordinate
C2 ; Choosing tool 2 in the choose demultiplexer circuits

F600 ; setting default feedrate

S255 ; sets pwm speed when we enable it

G01 Z10F20 ; Moving Spindle to UP Postion

M3 ; Turn Motor ON
G4 P2 ; dwell for 2 seconds so motor reaches full RPM

G01 X41.2236Y57.1056F600
G01 Z13F1
G01 Z10F20
G01 X41.2236Y59.6456F600
G01 Z13F1
G01 Z10F20
G01 X41.2236Y62.1856F600
G01 Z13F1
G01 Z10F20
G01 X24.9513Y26.00155F600
G01 Z13F1
G01 Z10F20
G01 X24.9513Y41.24155F600
G01 Z13F1
G01 Z10F20
G01 X17.0046Y48.682F600
G01 Z13F1
G01 Z10F20
G01 X24.6246Y48.682F600
G01 Z13F1
G01 Z10F20
G01 X32.9332Y69.704F600
G01 Z13F1
G01 Z10F20
G01 X32.9332Y62.084F600
G01 Z13F1
G01 Z10F20
G01 X44.698Y67.8188F600
G01 Z13F1
G01 Z10F20
G01 X42.158Y67.8188F600
G01 Z13F1
G01 Z10F20
G01 X39.618Y67.8188F600
G01 Z13F1
G01 Z10F20
G01 X47.8784Y66.4528F600
G01 Z13F1
G01 Z10F20
G01 X47.8784Y58.8328F600
G01 Z13F1
G01 Z10F20
G01 X16.4598Y74.1972F600
G01 Z13F1
G01 Z10F20
G01 X24.0798Y74.1972F600
G01 Z13F1
G01 Z10F20
G01 X24.1398Y69.9522F600
G01 Z13F1
G01 Z10F20
G01 X21.5998Y69.9522F600
G01 Z13F1
G01 Z10F20
G01 X19.0598Y69.9522F600
G01 Z13F1
G01 Z10F20
G01 X16.4648Y61.3222F600
G01 Z13F1
G01 Z10F20
G01 X16.4648Y53.7022F600
G01 Z13F1
G01 Z10F20
G01 X18.6793Y10.44375F600
G01 Z13F1
G01 Z10F20
G01 X44.668Y75.0988F600
G01 Z13F1
G01 Z10F20
G01 X37.048Y75.0988F600
G01 Z13F1
G01 Z10F20
G01 X29.0Y8.0F600
G01 Z13F1
G01 Z10F20
G01 X34.772Y55.734F600
G01 Z13F1
G01 Z10F20
G01 X34.772Y48.114F600
G01 Z13F1
G01 Z10F20
G01 X13.3701Y25.56975F600
G01 Z13F1
G01 Z10F20
G01 X20.9901Y25.56975F600
G01 Z13F1
G01 Z10F20
G01 X48.0Y8.0F600
G01 Z13F1
G01 Z10F20
G01 X23.6748Y66.7822F600
G01 Z13F1
G01 Z10F20
G01 X23.6748Y59.1622F600
G01 Z13F1
G01 Z10F20
G01 X34.7628Y34.4292F600
G01 Z13F1
G01 Z10F20
G01 X42.3828Y34.4292F600
G01 Z13F1
G01 Z10F20
G01 X19.4051Y22.39475F600
G01 Z13F1
G01 Z10F20
G01 X16.8651Y22.39475F600
G01 Z13F1
G01 Z10F20
G01 X14.3251Y22.39475F600
G01 Z13F1
G01 Z10F20
G01 X26.0051Y16.60475F600
G01 Z13F1
G01 Z10F20
G01 X26.0051Y21.68475F600
G01 Z13F1
G01 Z10F20
G01 X19.9648Y61.4072F600
G01 Z13F1
G01 Z10F20
G01 X19.9648Y63.9472F600
G01 Z13F1
G01 Z10F20
G01 X19.9648Y66.4872F600
G01 Z13F1
G01 Z10F20
G01 X24.6498Y51.1398F600
G01 Z13F1
G01 Z10F20
G01 X17.0298Y51.1398F600
G01 Z13F1
G01 Z10F20
G01 X37.066Y62.0663F600
G01 Z13F1
G01 Z10F20
G01 X37.066Y69.6863F600
G01 Z13F1
G01 Z10F20
G01 X30.4588Y73.8812F600
G01 Z13F1
G01 Z10F20
G01 X32.9988Y73.8812F600
G01 Z13F1
G01 Z10F20
G01 X32.9988Y81.5012F600
G01 Z13F1
G01 Z10F20
G01 X30.4588Y81.5012F600
G01 Z13F1
G01 Z10F20
G01 X19.3714Y54.3084F600
G01 Z13F1
G01 Z10F20
G01 X21.9114Y54.3084F600
G01 Z13F1
G01 Z10F20
G01 X24.4514Y54.3084F600
G01 Z13F1
G01 Z10F20
G01 X26.7964Y54.3084F600
G01 Z13F1
G01 Z10F20
G01 X29.3364Y54.3084F600
G01 Z13F1
G01 Z10F20
G01 X31.8764Y54.3084F600
G01 Z13F1
G01 Z10F20
G01 X41.5278Y16.5642F600
G01 Z13F1
G01 Z10F20
G01 X38.9878Y16.5642F600
G01 Z13F1
G01 Z10F20
G01 X36.4478Y16.5642F600
G01 Z13F1
G01 Z10F20
G01 X42.3628Y40.8492F600
G01 Z13F1
G01 Z10F20
G01 X39.8228Y40.8492F600
G01 Z13F1
G01 Z10F20
G01 X37.2828Y40.8492F600
G01 Z13F1
G01 Z10F20
G01 X48.0Y96.0F600
G01 Z13F1
G01 Z10F20
G01 X29.0Y96.0F600
G01 Z13F1
G01 Z10F20
G01 X38.0328Y31.7792F600
G01 Z13F1
G01 Z10F20
G01 X40.5728Y31.7792F600
G01 Z13F1
G01 Z10F20
G01 X40.5728Y24.1592F600
G01 Z13F1
G01 Z10F20
G01 X38.0328Y24.1592F600
G01 Z13F1
G01 Z10F20
G01 X44.9828Y49.8992F600
G01 Z13F1
G01 Z10F20
G01 X39.9028Y49.8992F600
G01 Z13F1
G01 Z10F20
G01 X26.7714Y49.5584F600
G01 Z13F1
G01 Z10F20
G01 X29.3114Y49.5584F600
G01 Z13F1
G01 Z10F20
G01 X31.8514Y49.5584F600
G01 Z13F1
G01 Z10F20
G01 X16.4498Y63.9772F600
G01 Z13F1
G01 Z10F20
G01 X16.4498Y71.5972F600
G01 Z13F1
G01 Z10F20
G01 X34.9244Y84.1312F600
G01 Z13F1
G01 Z10F20
G01 X27.3044Y84.1312F600
G01 Z13F1
G01 Z10F20
G01 X42.4178Y53.4242F600
G01 Z13F1
G01 Z10F20
G01 X39.8778Y53.4242F600
G01 Z13F1
G01 Z10F20
G01 X37.3378Y53.4242F600
G01 Z13F1
G01 Z10F20
G01 X45.186Y78.3908F600
G01 Z13F1
G01 Z10F20
G01 X45.186Y81.9908F600
G01 Z13F1
G01 Z10F20
G01 X45.186Y85.5908F600
G01 Z13F1
G01 Z10F20
G01 X37.058Y72.0738F600
G01 Z13F1
G01 Z10F20
G01 X44.678Y72.0738F600
G01 Z13F1
G01 Z10F20
G01 X17.3451Y28.35975F600
G01 Z13F1
G01 Z10F20
G01 X19.8851Y28.35975F600
G01 Z13F1
G01 Z10F20
G01 X19.8851Y35.97975F600
G01 Z13F1
G01 Z10F20
G01 X17.3451Y35.97975F600
G01 Z13F1
G01 Z10F20
G01 X30.7908Y34.1882F600
G01 Z13F1
G01 Z10F20
G01 X30.7908Y18.9482F600
G01 Z13F1
G01 Z10F20
G01 X31.8256Y58.02F600
G01 Z13F1
G01 Z10F20
G01 X26.7456Y58.02F600
G01 Z13F1
G01 Z10F20
G01 X34.7462Y38.349F600
G01 Z13F1
G01 Z10F20
G01 X34.7462Y45.969F600
G01 Z13F1
G01 Z10F20
G01 X42.4078Y21.5042F600
G01 Z13F1
G01 Z10F20
G01 X34.7878Y21.5042F600
G01 Z13F1
G01 Z10F20
G01 X41.884Y85.5908F600
G01 Z13F1
G01 Z10F20
G01 X41.884Y81.9908F600
G01 Z13F1
G01 Z10F20
G01 X41.884Y78.3908F600
G01 Z13F1
G01 Z10F20
G01 X19.9729Y46.04055F600
G01 Z13F1
G01 Z10F20
G01 X19.9729Y38.42055F600
G01 Z13F1
G01 Z10F20
G01 X27.406Y71.6344F600
G01 Z13F1
G01 Z10F20
G01 X27.406Y79.2544F600
G01 Z13F1
G01 Z10F20
G01 X42.3628Y45.5992F600
G01 Z13F1
G01 Z10F20
G01 X39.8228Y45.5992F600
G01 Z13F1
G01 Z10F20
G01 X37.2828Y45.5992F600
G01 Z13F1
G01 Z10F20
G01 X38.1568Y37.3632F600
G01 Z13F1
G01 Z10F20
G01 X45.7768Y37.3632F600
G01 Z13F1
G01 Z10F20
G01 X24.0848Y77.1972F600
G01 Z13F1
G01 Z10F20
G01 X16.4648Y77.1972F600
G01 Z13F1
G01 Z10F20
G01 X18.7301Y15.26975F600
G01 Z13F1
G01 Z10F20
G01 X16.9729Y46.04055F600
G01 Z13F1
G01 Z10F20
G01 X16.9729Y38.42055F600
G01 Z13F1
G01 Z10F20
G01 X20.8188Y88.8302F600
G01 Z13F1
G01 Z10F20
G01 X20.8188Y90.1002F600
G01 Z13F1
G01 Z10F20
G01 X20.8188Y91.3702F600
G01 Z13F1
G01 Z10F20
G01 X20.8188Y92.6402F600
G01 Z13F1
G01 Z10F20
G01 X20.8188Y93.9102F600
G01 Z13F1
G01 Z10F20
G01 X20.8188Y95.1802F600
G01 Z13F1
G01 Z10F20
G01 X20.8188Y96.4502F600
G01 Z13F1
G01 Z10F20
G01 X20.8188Y97.7202F600
G01 Z13F1
G01 Z10F20
G01 X4.8888Y93.2752F600
G01 Z13F1
G01 Z10F20

M5 ; disabling spindle PWM

; Returning the Deactivating Tool-2
C0 ; PWM Tool select demultiplexer to select tool zero which is the empty tool slot in multiplexers
#TODO X-0.0Y-0.0Z-0.0 ;  ;Remove tool offset coordinate
G00X165.0Y91.0Z12.0 ; Go to Tool-2 Home Pos
G00X92 ; Enter Female Kinematic Mount Home Pos
A0 ; Latch OFF Kinematic Mount
G4 P5 ; Wait for Kinematic Mount to fully detach
G00X188 ; Exit Female Kinematic Mount Home Pos

; Machine deinitialization Sequence... 
G00X0.0Y0.0Z0.0
B0 ; Turn Machine OFF
