; This gcode is generated by my specialised python script for my PCB manufacturer project :))

; Machine Initialization Sequence...

G21 ; to set metric units
G90 ; to set absolute mode , G91 for incremental mode
G94 ; To set the active feed rate mode to units per minute mode

M5 ; disabling spindle PWM
C0 ; Choosing the empty tool slot in the multiplexer circuits

B1 ; Turn ON Machine

$H ; Homing :)
G10 P0 L20 X0.0Y0.0Z0.0 ; Force Reset current coordinates after homing


; The following gcode is the PCB trace laser marking gcode

M5 ; Being extra sure it won't light up before activation

; Getting and Activating Tool-1, The Tool.Laser
G00X165.0Y0.0Z10.5 ; Go to Tool-1 Home Pos
G00X188 ; Enter Female Kinematic Mount Home Pos
A1 ; Latch on Kinematic Mount
G4 P5 ; Wait for Kinematic Mount to fully attach
G00X92 ; Exit Female Kinematic Mount Home Pos
#TODO X0.0Y0.0Z0.0 ;  ;Add tool offset coordinate
C1 ; Choosing tool 1 in the choose demultiplexer circuits

F400 ; setting default feedrate

G00Z16 ; Moving to correct focal length Z position

S200 ; Setting Laser Power

; Number of passes: 1

; Pass number: 1
G01 X38.50245Y62.3867
M3
G01 X38.51923Y62.42219
G01 X38.53941Y62.45586
G01 X38.5628Y62.48739
G01 X38.58916Y62.51647
G01 X40.21133Y64.13864
G01 X40.24041Y64.165
G01 X40.27194Y64.18839
G01 X40.30561Y64.20857
G01 X40.3411Y64.22535
G01 X40.37806Y64.23858
G01 X40.41613Y64.24811
G01 X40.45496Y64.25387
G01 X40.49417Y64.2558
G01 X47.94414Y64.2558
G01 X49.0784Y65.39006
G01 X49.0784Y65.8532
G01 X49.0784Y66.94985
G01 X48.37545Y67.6528
G01 X47.25169Y67.6528
G01 X46.648Y67.04911
G01 X46.648Y66.2688
G01 X46.648Y66.2688
G01 X46.64724Y66.25339
G01 X46.64607Y66.22959
G01 X46.64607Y66.22959
G01 X46.64607Y66.22959
G01 X46.64442Y66.21841
G01 X46.64031Y66.19076
G01 X46.64031Y66.19076
G01 X46.64031Y66.19076
G01 X46.6379Y66.18111
G01 X46.63078Y66.15269
G01 X46.63078Y66.15269
G01 X46.63065Y66.15235
G01 X46.61755Y66.11573
G01 X46.61755Y66.11573
G01 X46.61755Y66.11573
G01 X46.60712Y66.09367
G01 X46.60077Y66.08024
G01 X46.60077Y66.08024
G01 X46.60077Y66.08024
G01 X46.58673Y66.05682
G01 X46.58059Y66.04657
G01 X46.58059Y66.04657
G01 X46.58059Y66.04657
G01 X46.56756Y66.02901
G01 X46.5572Y66.01504
G01 X46.5572Y66.01504
G01 X46.5572Y66.01504
G01 X46.54899Y66.00598
G01 X46.53084Y65.98596
G01 X46.51784Y65.97296
G01 X46.51784Y65.97296
G01 X46.51688Y65.97209
G01 X46.48876Y65.9466
G01 X46.48876Y65.9466
G01 X46.48876Y65.9466
G01 X46.45723Y65.92321
G01 X46.42863Y65.90607
G01 X46.42356Y65.90303
G01 X46.42356Y65.90303
G01 X46.3991Y65.89146
G01 X46.38807Y65.88625
G01 X46.38807Y65.88625
G01 X46.38807Y65.88625
G01 X46.37254Y65.88069
G01 X46.35111Y65.87302
G01 X46.35111Y65.87302
G01 X46.34649Y65.87187
G01 X46.31304Y65.86349
G01 X46.27421Y65.85773
G01 X46.27421Y65.85773
G01 X46.27421Y65.85773
G01 X46.24945Y65.85651
G01 X46.235Y65.8558
G01 X46.235Y65.8558
G01 X46.235Y65.8558
G01 X44.87074Y65.8558
G01 X42.66034Y65.8558
G01 X42.62113Y65.85773
G01 X42.5823Y65.86349
G01 X42.54423Y65.87302
G01 X42.50727Y65.88625
G01 X42.47178Y65.90303
G01 X42.4482Y65.91716
G01 X42.43811Y65.92321
G01 X42.40658Y65.9466
G01 X42.3775Y65.97296
G01 X41.87516Y66.4753
G01 X41.8488Y66.50438
G01 X41.82541Y66.53591
G01 X41.80523Y66.56958
G01 X41.78845Y66.60507
G01 X41.77522Y66.64203
G01 X41.76569Y66.6801
G01 X41.75993Y66.71893
G01 X41.758Y66.75814
G01 X41.758Y67.1852
G01 X41.74132Y67.1952
G01 X41.68221Y67.23904
G01 X41.62767Y67.28847
G01 X41.57824Y67.34301
G01 X41.5344Y67.40212
G01 X41.49656Y67.46525
G01 X41.46509Y67.53179
G01 X41.44029Y67.60109
G01 X41.42241Y67.67248
G01 X41.41161Y67.74529
G01 X41.408Y67.8188
G01 X41.41161Y67.89231
G01 X41.42241Y67.96512
G01 X41.44029Y68.03651
G01 X41.46509Y68.10581
G01 X41.49656Y68.17235
G01 X41.5344Y68.23548
G01 X41.57824Y68.29459
G01 X41.62767Y68.34913
G01 X41.68221Y68.39856
G01 X41.74132Y68.4424
G01 X41.758Y68.4524
G01 X41.758Y69.82311
G01 X37.25435Y74.32677
G01 X37.20407Y74.31417
G01 X37.12641Y74.30265
G01 X37.048Y74.2988
G01 X36.96959Y74.30265
G01 X36.89193Y74.31417
G01 X36.81577Y74.33325
G01 X36.74185Y74.3597
G01 X36.67088Y74.39326
G01 X36.60354Y74.43362
G01 X36.54049Y74.48039
G01 X36.48231Y74.53311
G01 X36.42959Y74.59129
G01 X36.38282Y74.65434
G01 X36.34246Y74.72168
G01 X36.3089Y74.79265
G01 X36.28245Y74.86657
G01 X36.26337Y74.94273
G01 X36.25185Y75.02039
G01 X36.248Y75.0988
G01 X36.25185Y75.17721
G01 X36.26337Y75.25487
G01 X36.28245Y75.33103
G01 X36.3089Y75.40495
G01 X36.34246Y75.47592
G01 X36.38282Y75.54326
G01 X36.42959Y75.60631
G01 X36.48231Y75.66449
G01 X36.54049Y75.71721
G01 X36.60354Y75.76398
G01 X36.67088Y75.80434
G01 X36.74185Y75.8379
G01 X36.81577Y75.86435
G01 X36.89193Y75.88343
G01 X36.96959Y75.89495
G01 X37.048Y75.8988
G01 X37.12641Y75.89495
G01 X37.20407Y75.88343
G01 X37.28023Y75.86435
G01 X37.35415Y75.8379
G01 X37.42512Y75.80434
G01 X37.49246Y75.76398
G01 X37.55551Y75.71721
G01 X37.61369Y75.66449
G01 X37.66641Y75.60631
G01 X37.71318Y75.54326
G01 X37.75354Y75.47592
G01 X37.7871Y75.40495
G01 X37.81355Y75.33103
G01 X37.83263Y75.25487
G01 X37.84415Y75.17721
G01 X37.848Y75.0988
G01 X37.84415Y75.02039
G01 X37.83263Y74.94273
G01 X37.82003Y74.89245
G01 X42.44084Y70.27164
G01 X42.4672Y70.24256
G01 X42.49059Y70.21103
G01 X42.51077Y70.17736
G01 X42.52755Y70.14187
G01 X42.54078Y70.10491
G01 X42.55031Y70.06684
G01 X42.55607Y70.02801
G01 X42.558Y69.9888
G01 X42.558Y68.4524
G01 X42.57468Y68.4424
G01 X42.63379Y68.39856
G01 X42.68833Y68.34913
G01 X42.73776Y68.29459
G01 X42.7816Y68.23548
G01 X42.81944Y68.17235
G01 X42.85091Y68.10581
G01 X42.87571Y68.03651
G01 X42.89359Y67.96512
G01 X42.90439Y67.89231
G01 X42.908Y67.8188
G01 X42.90439Y67.74529
G01 X42.89359Y67.67248
G01 X42.87571Y67.60109
G01 X42.85091Y67.53179
G01 X42.81944Y67.46525
G01 X42.7816Y67.40212
G01 X42.73776Y67.34301
G01 X42.68833Y67.28847
G01 X42.63379Y67.23904
G01 X42.57468Y67.1952
G01 X42.558Y67.1852
G01 X42.558Y66.92383
G01 X42.82603Y66.6558
G01 X44.87074Y66.6558
G01 X45.848Y66.6558
G01 X45.848Y67.2148
G01 X45.84993Y67.25401
G01 X45.85569Y67.29284
G01 X45.86522Y67.33091
G01 X45.87845Y67.36787
G01 X45.89523Y67.40336
G01 X45.91541Y67.43703
G01 X45.9388Y67.46856
G01 X45.96516Y67.49764
G01 X46.80316Y68.33564
G01 X46.83224Y68.362
G01 X46.86377Y68.38539
G01 X46.89744Y68.40557
G01 X46.93293Y68.42235
G01 X46.96989Y68.43558
G01 X47.00796Y68.44511
G01 X47.04679Y68.45087
G01 X47.086Y68.4528
G01 X48.54114Y68.4528
G01 X48.58035Y68.45087
G01 X48.61918Y68.44511
G01 X48.65725Y68.43558
G01 X48.69421Y68.42235
G01 X48.7297Y68.40557
G01 X48.76337Y68.38539
G01 X48.7949Y68.362
G01 X48.82398Y68.33564
G01 X49.76124Y67.39838
G01 X49.7876Y67.3693
G01 X49.81099Y67.33777
G01 X49.83117Y67.3041
G01 X49.84795Y67.26861
G01 X49.86118Y67.23165
G01 X49.87071Y67.19358
G01 X49.87647Y67.15475
G01 X49.8784Y67.11554
G01 X49.8784Y65.8532
G01 X49.8784Y65.22437
G01 X49.8784Y58.17006
G01 X49.87647Y58.13085
G01 X49.87071Y58.09202
G01 X49.86118Y58.05395
G01 X49.84795Y58.01699
G01 X49.83117Y57.9815
G01 X49.81099Y57.94783
G01 X49.7876Y57.9163
G01 X49.76124Y57.88722
G01 X49.14021Y57.26619
G01 X49.14021Y57.26619
G01 X46.9828Y55.10877
G01 X46.9828Y41.7792
G01 X46.98087Y41.73999
G01 X46.97511Y41.70116
G01 X46.96558Y41.66309
G01 X46.95235Y41.62613
G01 X46.93557Y41.59064
G01 X46.91539Y41.55697
G01 X46.892Y41.52544
G01 X46.86564Y41.49636
G01 X44.4078Y39.03851
G01 X44.4078Y28.3442
G01 X44.4078Y15.4917
G01 X44.4078Y15.4917
G01 X44.40587Y15.45249
G01 X44.40011Y15.41366
G01 X44.39058Y15.37559
G01 X44.37735Y15.33863
G01 X44.36057Y15.30314
G01 X44.34039Y15.26947
G01 X44.317Y15.23794
G01 X44.29064Y15.20886
G01 X43.56314Y14.48136
G01 X43.53406Y14.455
G01 X43.50253Y14.43161
G01 X43.46886Y14.41143
G01 X43.45659Y14.40563
G01 X43.43337Y14.39465
G01 X43.39641Y14.38142
G01 X43.35834Y14.37189
G01 X43.31951Y14.36613
G01 X43.2803Y14.3642
G01 X39.7753Y14.3642
G01 X35.4066Y14.3642
G01 X26.0273Y14.3642
G01 X21.824Y10.16091
G01 X21.79492Y10.13455
G01 X21.76339Y10.11116
G01 X21.72972Y10.09098
G01 X21.69423Y10.0742
G01 X21.65727Y10.06097
G01 X21.6192Y10.05144
G01 X21.58037Y10.04568
G01 X21.54116Y10.04375
G01 X21.1576Y10.04375
G01 X19.5293Y10.04375
G01 X19.5293Y9.59375
G01 X17.8293Y9.59375
G01 X17.8293Y11.29375
G01 X19.5293Y11.29375
G01 X19.5293Y10.84375
G01 X21.1576Y10.84375
G01 X21.37547Y10.84375
G01 X25.57877Y15.04704
G01 X25.60785Y15.0734
G01 X25.63938Y15.09679
G01 X25.67305Y15.11697
G01 X25.70854Y15.13375
G01 X25.7455Y15.14698
G01 X25.78357Y15.15651
G01 X25.8224Y15.16227
G01 X25.86161Y15.1642
G01 X35.24375Y15.1642
G01 X35.26549Y15.17198
G01 X35.30356Y15.18151
G01 X35.34239Y15.18727
G01 X35.3816Y15.1892
G01 X35.42081Y15.18727
G01 X35.45964Y15.18151
G01 X35.49771Y15.17198
G01 X35.51945Y15.1642
G01 X38.80961Y15.1642
G01 X38.70496Y15.26886
G01 X38.6786Y15.29794
G01 X38.65521Y15.32947
G01 X38.63503Y15.36314
G01 X38.61825Y15.39863
G01 X38.60502Y15.43559
G01 X38.59549Y15.47366
G01 X38.58973Y15.51249
G01 X38.5878Y15.5517
G01 X38.5878Y15.65349
G01 X38.53879Y15.67667
G01 X38.45862Y15.72473
G01 X38.38354Y15.78041
G01 X38.31428Y15.84318
G01 X38.25151Y15.91244
G01 X38.19583Y15.98752
G01 X38.14777Y16.06769
G01 X38.1078Y16.15219
G01 X38.07631Y16.2402
G01 X38.0536Y16.33088
G01 X38.03989Y16.42334
G01 X38.0353Y16.6117
G01 X38.03989Y16.70506
G01 X38.0536Y16.79752
G01 X38.07631Y16.8882
G01 X38.1078Y16.97621
G01 X38.14777Y17.06071
G01 X38.19583Y17.14088
G01 X38.25151Y17.21596
G01 X38.31428Y17.28522
G01 X38.38354Y17.34799
G01 X38.45862Y17.40367
G01 X38.53879Y17.45173
G01 X38.62329Y17.4917
G01 X38.7113Y17.52319
G01 X38.80198Y17.5459
G01 X38.89444Y17.55961
G01 X38.9878Y17.5642
G01 X39.08116Y17.55961
G01 X39.17362Y17.5459
G01 X39.2643Y17.52319
G01 X39.35231Y17.4917
G01 X39.43681Y17.45173
G01 X39.51698Y17.40367
G01 X39.59206Y17.34799
G01 X39.66132Y17.28522
G01 X39.72409Y17.21596
G01 X39.77977Y17.14088
G01 X39.82783Y17.06071
G01 X39.8678Y16.97621
G01 X39.89929Y16.8882
G01 X39.922Y16.79752
G01 X39.93571Y16.70506
G01 X39.9403Y16.5167
G01 X39.93571Y16.42334
G01 X39.922Y16.33088
G01 X39.89929Y16.2402
G01 X39.8678Y16.15219
G01 X39.82783Y16.06769
G01 X39.77977Y15.98752
G01 X39.72409Y15.91244
G01 X39.66132Y15.84318
G01 X39.59206Y15.78041
G01 X39.51698Y15.72473
G01 X39.43681Y15.67667
G01 X39.43118Y15.67401
G01 X39.94099Y15.1642
G01 X43.11461Y15.1642
G01 X43.6078Y15.65739
G01 X43.6078Y28.17851
G01 X40.77915Y31.00717
G01 X40.72887Y30.99457
G01 X40.65121Y30.98305
G01 X40.5728Y30.9792
G01 X40.49439Y30.98305
G01 X40.41673Y30.99457
G01 X40.34057Y31.01365
G01 X40.26665Y31.0401
G01 X40.19568Y31.07366
G01 X40.12834Y31.11402
G01 X40.06529Y31.16079
G01 X40.00711Y31.21351
G01 X39.95439Y31.27169
G01 X39.90762Y31.33474
G01 X39.86726Y31.40208
G01 X39.8337Y31.47305
G01 X39.80725Y31.54697
G01 X39.78817Y31.62313
G01 X39.77665Y31.70079
G01 X39.7728Y31.7792
G01 X39.77665Y31.85761
G01 X39.78817Y31.93527
G01 X39.80725Y32.01143
G01 X39.8337Y32.08535
G01 X39.86726Y32.15632
G01 X39.90762Y32.22366
G01 X39.95439Y32.28671
G01 X40.00711Y32.34489
G01 X40.06529Y32.39761
G01 X40.12834Y32.44438
G01 X40.19568Y32.48474
G01 X40.26665Y32.5183
G01 X40.34057Y32.54475
G01 X40.41673Y32.56383
G01 X40.49439Y32.57535
G01 X40.5728Y32.5792
G01 X40.65121Y32.57535
G01 X40.72887Y32.56383
G01 X40.80503Y32.54475
G01 X40.87895Y32.5183
G01 X40.94992Y32.48474
G01 X41.01726Y32.44438
G01 X41.08031Y32.39761
G01 X41.13849Y32.34489
G01 X41.19121Y32.28671
G01 X41.23798Y32.22366
G01 X41.27834Y32.15632
G01 X41.3119Y32.08535
G01 X41.33835Y32.01143
G01 X41.35743Y31.93527
G01 X41.36895Y31.85761
G01 X41.3728Y31.7792
G01 X41.36895Y31.70079
G01 X41.35743Y31.62313
G01 X41.34483Y31.57285
G01 X43.6078Y29.30989
G01 X43.6078Y39.03851
G01 X42.54711Y40.0992
G01 X41.6128Y40.0992
G01 X41.6128Y41.5992
G01 X41.9628Y41.5992
G01 X41.9628Y44.8492
G01 X41.6128Y44.8492
G01 X41.6128Y46.3492
G01 X41.9628Y46.3492
G01 X41.9628Y52.6742
G01 X41.6678Y52.6742
G01 X41.6678Y54.1742
G01 X43.1678Y54.1742
G01 X43.1678Y52.6742
G01 X42.7628Y52.6742
G01 X42.7628Y46.3492
G01 X43.1128Y46.3492
G01 X43.1128Y44.8492
G01 X42.7628Y44.8492
G01 X42.7628Y41.5992
G01 X43.1128Y41.5992
G01 X43.1128Y40.66489
G01 X44.0078Y39.76989
G01 X46.1828Y41.94489
G01 X46.1828Y55.27446
G01 X46.18473Y55.31367
G01 X46.19049Y55.3525
G01 X46.20002Y55.39057
G01 X46.21325Y55.42753
G01 X46.23003Y55.46302
G01 X46.25021Y55.49669
G01 X46.2736Y55.52822
G01 X46.29996Y55.5573
G01 X47.44825Y56.7056
G01 X41.9736Y56.7056
G01 X41.9736Y56.3556
G01 X40.4736Y56.3556
G01 X40.4736Y57.8556
G01 X41.9736Y57.8556
G01 X41.9736Y57.5056
G01 X48.24825Y57.5056
G01 X49.0784Y58.33575
G01 X49.0784Y64.25868
G01 X48.39267Y63.57296
G01 X48.36359Y63.5466
G01 X48.33206Y63.52321
G01 X48.29839Y63.50303
G01 X48.2629Y63.48625
G01 X48.22594Y63.47302
G01 X48.18787Y63.46349
G01 X48.14904Y63.45773
G01 X48.10983Y63.4558
G01 X40.65986Y63.4558
G01 X39.272Y62.06794
G01 X39.272Y61.55486
G01 X39.27007Y61.51565
G01 X39.26431Y61.47682
G01 X39.25478Y61.43875
G01 X39.24155Y61.40179
G01 X39.22477Y61.3663
G01 X39.20459Y61.33263
G01 X39.1812Y61.3011
G01 X39.15484Y61.27202
G01 X37.86518Y59.98236
G01 X37.8361Y59.956
G01 X37.80457Y59.93261
G01 X37.7709Y59.91243
G01 X37.73541Y59.89565
G01 X37.69845Y59.88242
G01 X37.66038Y59.87289
G01 X37.62155Y59.86713
G01 X37.58234Y59.8652
G01 X36.60436Y59.8652
G01 X36.56515Y59.86713
G01 X36.52632Y59.87289
G01 X36.48825Y59.88242
G01 X36.45129Y59.89565
G01 X36.4158Y59.91243
G01 X36.38213Y59.93261
G01 X36.3506Y59.956
G01 X36.32152Y59.98236
G01 X35.18316Y61.12072
G01 X35.1568Y61.1498
G01 X35.13341Y61.18133
G01 X35.11323Y61.215
G01 X35.09645Y61.25049
G01 X35.08322Y61.28745
G01 X35.07369Y61.32552
G01 X35.06793Y61.36435
G01 X35.066Y61.40356
G01 X35.066Y61.80355
G01 X31.05036Y65.8192
G01 X31.024Y65.84828
G01 X31.00061Y65.87981
G01 X30.98043Y65.91348
G01 X30.96365Y65.94897
G01 X30.95042Y65.98593
G01 X30.94089Y66.024
G01 X30.93513Y66.06283
G01 X30.9332Y66.10204
G01 X30.9332Y72.2156
G01 X30.93513Y72.25481
G01 X30.94089Y72.29364
G01 X30.95042Y72.33171
G01 X30.96365Y72.36867
G01 X30.98043Y72.40416
G01 X31.00061Y72.43783
G01 X31.024Y72.46936
G01 X31.05036Y72.49844
G01 X32.22677Y73.67485
G01 X32.21417Y73.72513
G01 X32.20265Y73.80279
G01 X32.1988Y73.8812
G01 X32.20265Y73.95961
G01 X32.21417Y74.03727
G01 X32.22677Y74.08755
G01 X31.21811Y75.0962
G01 X29.17075Y75.0962
G01 X26.206Y72.13145
G01 X26.206Y67.672
G01 X26.206Y59.12529
G01 X26.53925Y58.79203
G01 X26.58953Y58.80463
G01 X26.66719Y58.81615
G01 X26.7456Y58.82
G01 X26.82401Y58.81615
G01 X26.90167Y58.80463
G01 X26.97783Y58.78555
G01 X27.05175Y58.7591
G01 X27.12272Y58.72554
G01 X27.19006Y58.68518
G01 X27.25311Y58.63841
G01 X27.31129Y58.58569
G01 X27.36401Y58.52751
G01 X27.41078Y58.46446
G01 X27.45114Y58.39712
G01 X27.4847Y58.32615
G01 X27.51115Y58.25223
G01 X27.53023Y58.17607
G01 X27.54175Y58.09841
G01 X27.5456Y58.02
G01 X27.54175Y57.94159
G01 X27.53023Y57.86393
G01 X27.51115Y57.78777
G01 X27.4847Y57.71385
G01 X27.45114Y57.64288
G01 X27.41078Y57.57554
G01 X27.36401Y57.51249
G01 X27.31129Y57.45431
G01 X27.25311Y57.40159
G01 X27.19006Y57.35482
G01 X27.12272Y57.31446
G01 X27.05175Y57.2809
G01 X26.97783Y57.25445
G01 X26.90167Y57.23537
G01 X26.82401Y57.22385
G01 X26.7456Y57.22
G01 X26.66719Y57.22385
G01 X26.58953Y57.23537
G01 X26.53792Y57.2483
G01 X26.52656Y57.238
G01 X26.49503Y57.21461
G01 X26.46136Y57.19443
G01 X26.42587Y57.17765
G01 X26.38891Y57.16442
G01 X26.35084Y57.15489
G01 X26.31201Y57.14913
G01 X26.2728Y57.1472
G01 X23.03417Y57.1472
G01 X22.99496Y57.14913
G01 X22.95613Y57.15489
G01 X22.91806Y57.16442
G01 X22.8811Y57.17765
G01 X22.84561Y57.19443
G01 X22.81194Y57.21461
G01 X22.78041Y57.238
G01 X22.75133Y57.26436
G01 X19.76696Y60.24873
G01 X19.7406Y60.27781
G01 X19.71721Y60.30934
G01 X19.69703Y60.34301
G01 X19.68025Y60.3785
G01 X19.66702Y60.41546
G01 X19.65749Y60.45353
G01 X19.65173Y60.49236
G01 X19.6498Y60.53157
G01 X19.6498Y60.6572
G01 X19.2148Y60.6572
G01 X19.2148Y62.1572
G01 X19.8871Y62.1572
G01 X19.89673Y62.16175
G01 X19.93369Y62.17498
G01 X19.97176Y62.18451
G01 X20.01059Y62.19027
G01 X20.0498Y62.1922
G01 X20.08901Y62.19027
G01 X20.12784Y62.18451
G01 X20.16591Y62.17498
G01 X20.20287Y62.16175
G01 X20.2125Y62.1572
G01 X20.7148Y62.1572
G01 X20.7148Y60.6572
G01 X20.48986Y60.6572
G01 X23.19986Y57.9472
G01 X25.94918Y57.9472
G01 X25.9456Y58.02
G01 X25.94945Y58.09841
G01 X25.96097Y58.17607
G01 X25.97357Y58.22635
G01 X25.52316Y58.67676
G01 X25.4968Y58.70584
G01 X25.47341Y58.73737
G01 X25.45323Y58.77104
G01 X25.43645Y58.80653
G01 X25.42322Y58.84349
G01 X25.41369Y58.88156
G01 X25.40793Y58.92039
G01 X25.406Y58.9596
G01 X25.406Y67.50631
G01 X24.91511Y67.9972
G01 X22.4048Y67.9972
G01 X22.36559Y67.99913
G01 X22.32676Y68.00489
G01 X22.28869Y68.01442
G01 X22.25173Y68.02765
G01 X22.21624Y68.04443
G01 X22.18696Y68.06198
G01 X22.18257Y68.06461
G01 X22.15104Y68.088
G01 X22.12196Y68.11436
G01 X21.31696Y68.91936
G01 X21.2906Y68.94844
G01 X21.26721Y68.97997
G01 X21.24703Y69.01364
G01 X21.23025Y69.04913
G01 X21.21702Y69.08609
G01 X21.20749Y69.12416
G01 X21.20173Y69.16299
G01 X21.1998Y69.2022
G01 X21.1998Y69.3186
G01 X21.18312Y69.3286
G01 X21.12401Y69.37244
G01 X21.06947Y69.42187
G01 X21.02004Y69.47641
G01 X20.9762Y69.53552
G01 X20.93836Y69.59865
G01 X20.90689Y69.66519
G01 X20.88209Y69.73449
G01 X20.86421Y69.80588
G01 X20.85341Y69.87869
G01 X20.8498Y69.9522
G01 X20.85341Y70.02571
G01 X20.86421Y70.09852
G01 X20.88209Y70.16991
G01 X20.90689Y70.23921
G01 X20.93836Y70.30575
G01 X20.9762Y70.36888
G01 X21.02004Y70.42799
G01 X21.06947Y70.48253
G01 X21.12401Y70.53196
G01 X21.18312Y70.5758
G01 X21.1998Y70.5858
G01 X21.1998Y71.89651
G01 X16.67115Y76.42517
G01 X16.62087Y76.41257
G01 X16.54321Y76.40105
G01 X16.4648Y76.3972
G01 X16.38639Y76.40105
G01 X16.30873Y76.41257
G01 X16.23257Y76.43165
G01 X16.15865Y76.4581
G01 X16.08768Y76.49166
G01 X16.02034Y76.53202
G01 X15.95729Y76.57879
G01 X15.89911Y76.63151
G01 X15.84639Y76.68969
G01 X15.79962Y76.75274
G01 X15.75926Y76.82008
G01 X15.7257Y76.89105
G01 X15.69925Y76.96497
G01 X15.68017Y77.04113
G01 X15.66865Y77.11879
G01 X15.6648Y77.1972
G01 X15.66865Y77.27561
G01 X15.68017Y77.35327
G01 X15.69925Y77.42943
G01 X15.7257Y77.50335
G01 X15.75926Y77.57432
G01 X15.79962Y77.64166
G01 X15.84639Y77.70471
G01 X15.89911Y77.76289
G01 X15.95729Y77.81561
G01 X16.02034Y77.86238
G01 X16.08768Y77.90274
G01 X16.15865Y77.9363
G01 X16.23257Y77.96275
G01 X16.30873Y77.98183
G01 X16.38639Y77.99335
G01 X16.4648Y77.9972
G01 X16.54321Y77.99335
G01 X16.62087Y77.98183
G01 X16.69703Y77.96275
G01 X16.77095Y77.9363
G01 X16.84192Y77.90274
G01 X16.90926Y77.86238
G01 X16.97231Y77.81561
G01 X17.03049Y77.76289
G01 X17.08321Y77.70471
G01 X17.12998Y77.64166
G01 X17.17034Y77.57432
G01 X17.2039Y77.50335
G01 X17.23035Y77.42943
G01 X17.24943Y77.35327
G01 X17.26095Y77.27561
G01 X17.2648Y77.1972
G01 X17.26095Y77.11879
G01 X17.24943Y77.04113
G01 X17.23683Y76.99085
G01 X21.88264Y72.34504
G01 X21.909Y72.31596
G01 X21.93239Y72.28443
G01 X21.95257Y72.25076
G01 X21.96935Y72.21527
G01 X21.98258Y72.17831
G01 X21.99211Y72.14024
G01 X21.99787Y72.10141
G01 X21.9998Y72.0622
G01 X21.9998Y70.5858
G01 X22.01648Y70.5758
G01 X22.07559Y70.53196
G01 X22.13013Y70.48253
G01 X22.17956Y70.42799
G01 X22.2234Y70.36888
G01 X22.26124Y70.30575
G01 X22.29271Y70.23921
G01 X22.31751Y70.16991
G01 X22.33539Y70.09852
G01 X22.34619Y70.02571
G01 X22.3498Y69.9522
G01 X22.34619Y69.87869
G01 X22.33539Y69.80588
G01 X22.31751Y69.73449
G01 X22.29271Y69.66519
G01 X22.26124Y69.59865
G01 X22.2234Y69.53552
G01 X22.17956Y69.47641
G01 X22.13013Y69.42187
G01 X22.07559Y69.37244
G01 X22.02946Y69.33823
G01 X22.57049Y68.7972
G01 X25.0808Y68.7972
G01 X25.12001Y68.79527
G01 X25.15884Y68.78951
G01 X25.19691Y68.77998
G01 X25.23387Y68.76675
G01 X25.26936Y68.74997
G01 X25.30303Y68.72979
G01 X25.33456Y68.7064
G01 X25.36364Y68.68004
G01 X25.406Y68.63769
G01 X25.406Y72.29714
G01 X25.40793Y72.33635
G01 X25.41369Y72.37518
G01 X25.42322Y72.41325
G01 X25.43645Y72.45021
G01 X25.45323Y72.4857
G01 X25.47341Y72.51937
G01 X25.4968Y72.5509
G01 X25.52316Y72.57998
G01 X28.72222Y75.77904
G01 X28.7513Y75.8054
G01 X28.78283Y75.82879
G01 X28.8165Y75.84897
G01 X28.85199Y75.86575
G01 X28.88895Y75.87898
G01 X28.92702Y75.88851
G01 X28.96585Y75.89427
G01 X29.00506Y75.8962
G01 X31.3838Y75.8962
G01 X31.42301Y75.89427
G01 X31.46184Y75.88851
G01 X31.49991Y75.87898
G01 X31.53687Y75.86575
G01 X31.57236Y75.84897
G01 X31.60603Y75.82879
G01 X31.63756Y75.8054
G01 X31.66664Y75.77904
G01 X32.79245Y74.65323
G01 X32.84273Y74.66583
G01 X32.92039Y74.67735
G01 X32.9988Y74.6812
G01 X33.07721Y74.67735
G01 X33.15487Y74.66583
G01 X33.23103Y74.64675
G01 X33.30495Y74.6203
G01 X33.37592Y74.58674
G01 X33.44326Y74.54638
G01 X33.50631Y74.49961
G01 X33.56449Y74.44689
G01 X33.61721Y74.38871
G01 X33.66398Y74.32566
G01 X33.70434Y74.25832
G01 X33.7379Y74.18735
G01 X33.76435Y74.11343
G01 X33.78343Y74.03727
G01 X33.79495Y73.95961
G01 X33.7988Y73.8812
G01 X33.79495Y73.80279
G01 X33.78343Y73.72513
G01 X33.76435Y73.64897
G01 X33.7379Y73.57505
G01 X33.70434Y73.50408
G01 X33.66398Y73.43674
G01 X33.61721Y73.37369
G01 X33.56449Y73.31551
G01 X33.50631Y73.26279
G01 X33.44326Y73.21602
G01 X33.37592Y73.17566
G01 X33.30495Y73.1421
G01 X33.23103Y73.11565
G01 X33.15487Y73.09657
G01 X33.07721Y73.08505
G01 X32.9988Y73.0812
G01 X32.92039Y73.08505
G01 X32.84273Y73.09657
G01 X32.79245Y73.10917
G01 X31.7332Y72.04991
G01 X31.7332Y66.26773
G01 X35.74884Y62.25208
G01 X35.7752Y62.223
G01 X35.79859Y62.19147
G01 X35.81877Y62.1578
G01 X35.83555Y62.12231
G01 X35.84878Y62.08535
G01 X35.85831Y62.04728
G01 X35.86407Y62.00845
G01 X35.866Y61.96924
G01 X35.866Y61.56925
G01 X36.77005Y60.6652
G01 X37.41665Y60.6652
G01 X38.472Y61.72055
G01 X38.472Y62.23363
G01 X38.47393Y62.27284
G01 X38.47969Y62.31167
G01 X38.48922Y62.34974
G01 X38.50245Y62.3867
G01 X38.50245Y62.3867
M5
G01 X40.48801Y59.49928
M3
G01 X40.47721Y59.57209
G01 X40.4736Y59.6456
G01 X40.47721Y59.71911
G01 X40.48801Y59.79192
G01 X40.50589Y59.86331
G01 X40.53069Y59.93261
G01 X40.56216Y59.99915
G01 X40.6Y60.06228
G01 X40.64384Y60.12139
G01 X40.69327Y60.17593
G01 X40.74781Y60.22536
G01 X40.80692Y60.2692
G01 X40.87005Y60.30704
G01 X40.93659Y60.33851
G01 X41.00589Y60.36331
G01 X41.07728Y60.38119
G01 X41.15009Y60.39199
G01 X41.2236Y60.3956
G01 X41.29711Y60.39199
G01 X41.36992Y60.38119
G01 X41.44131Y60.36331
G01 X41.51061Y60.33851
G01 X41.57715Y60.30704
G01 X41.64028Y60.2692
G01 X41.69939Y60.22536
G01 X41.75393Y60.17593
G01 X41.80336Y60.12139
G01 X41.8472Y60.06228
G01 X41.8572Y60.0456
G01 X47.0656Y60.0456
G01 X47.10481Y60.04367
G01 X47.14364Y60.03791
G01 X47.18171Y60.02838
G01 X47.21867Y60.01515
G01 X47.25416Y59.99837
G01 X47.28783Y59.97819
G01 X47.31936Y59.9548
G01 X47.34844Y59.92844
G01 X47.67205Y59.60483
G01 X47.72233Y59.61743
G01 X47.79999Y59.62895
G01 X47.8784Y59.6328
G01 X47.95681Y59.62895
G01 X48.03447Y59.61743
G01 X48.11063Y59.59835
G01 X48.18455Y59.5719
G01 X48.25552Y59.53834
G01 X48.32286Y59.49798
G01 X48.38591Y59.45121
G01 X48.44409Y59.39849
G01 X48.49681Y59.34031
G01 X48.54358Y59.27726
G01 X48.58394Y59.20992
G01 X48.6175Y59.13895
G01 X48.64395Y59.06503
G01 X48.66303Y58.98887
G01 X48.67455Y58.91121
G01 X48.6784Y58.8328
G01 X48.67455Y58.75439
G01 X48.66303Y58.67673
G01 X48.64395Y58.60057
G01 X48.6175Y58.52665
G01 X48.58394Y58.45568
G01 X48.54358Y58.38834
G01 X48.49681Y58.32529
G01 X48.44409Y58.26711
G01 X48.38591Y58.21439
G01 X48.32286Y58.16762
G01 X48.25552Y58.12726
G01 X48.18455Y58.0937
G01 X48.11063Y58.06725
G01 X48.03447Y58.04817
G01 X47.95681Y58.03665
G01 X47.8784Y58.0328
G01 X47.79999Y58.03665
G01 X47.72233Y58.04817
G01 X47.64617Y58.06725
G01 X47.57225Y58.0937
G01 X47.50128Y58.12726
G01 X47.43394Y58.16762
G01 X47.37089Y58.21439
G01 X47.31271Y58.26711
G01 X47.25999Y58.32529
G01 X47.21322Y58.38834
G01 X47.17286Y58.45568
G01 X47.1393Y58.52665
G01 X47.11285Y58.60057
G01 X47.09377Y58.67673
G01 X47.08225Y58.75439
G01 X47.0784Y58.8328
G01 X47.08225Y58.91121
G01 X47.09377Y58.98887
G01 X47.10637Y59.03915
G01 X46.89991Y59.2456
G01 X41.8572Y59.2456
G01 X41.8472Y59.22892
G01 X41.80336Y59.16981
G01 X41.75393Y59.11527
G01 X41.69939Y59.06584
G01 X41.64028Y59.022
G01 X41.57715Y58.98416
G01 X41.51061Y58.95269
G01 X41.44131Y58.92789
G01 X41.36992Y58.91001
G01 X41.29711Y58.89921
G01 X41.2236Y58.8956
G01 X41.15009Y58.89921
G01 X41.07728Y58.91001
G01 X41.00589Y58.92789
G01 X40.93659Y58.95269
G01 X40.87005Y58.98416
G01 X40.80692Y59.022
G01 X40.74781Y59.06584
G01 X40.69327Y59.11527
G01 X40.64384Y59.16981
G01 X40.6Y59.22892
G01 X40.56216Y59.29205
G01 X40.53069Y59.35859
G01 X40.50589Y59.42789
G01 X40.48801Y59.49928
G01 X40.48801Y59.49928
M5
G01 X32.22766Y62.46112
M3
G01 X32.26802Y62.52846
G01 X32.31479Y62.59151
G01 X32.36751Y62.64969
G01 X32.42569Y62.70241
G01 X32.48874Y62.74918
G01 X32.55608Y62.78954
G01 X32.62705Y62.8231
G01 X32.70097Y62.84955
G01 X32.77713Y62.86863
G01 X32.85479Y62.88015
G01 X32.9332Y62.884
G01 X33.01161Y62.88015
G01 X33.08927Y62.86863
G01 X33.16543Y62.84955
G01 X33.23935Y62.8231
G01 X33.31032Y62.78954
G01 X33.37766Y62.74918
G01 X33.44071Y62.70241
G01 X33.49889Y62.64969
G01 X33.55161Y62.59151
G01 X33.59838Y62.52846
G01 X33.63874Y62.46112
G01 X33.6723Y62.39015
G01 X33.69875Y62.31623
G01 X33.71783Y62.24007
G01 X33.72935Y62.16241
G01 X33.7332Y62.084
G01 X33.72935Y62.00559
G01 X33.71783Y61.92793
G01 X33.70523Y61.87765
G01 X36.11769Y59.4652
G01 X37.93751Y59.4652
G01 X39.39076Y60.91844
G01 X40.49274Y62.02042
G01 X40.48801Y62.03928
G01 X40.47721Y62.11209
G01 X40.4736Y62.1856
G01 X40.47721Y62.25911
G01 X40.48801Y62.33192
G01 X40.50589Y62.40331
G01 X40.53069Y62.47261
G01 X40.56216Y62.53915
G01 X40.6Y62.60228
G01 X40.64384Y62.66139
G01 X40.69327Y62.71593
G01 X40.74781Y62.76536
G01 X40.80692Y62.8092
G01 X40.87005Y62.84704
G01 X40.93659Y62.87851
G01 X41.00589Y62.90331
G01 X41.07728Y62.92119
G01 X41.15009Y62.93199
G01 X41.2236Y62.9356
G01 X41.29711Y62.93199
G01 X41.36992Y62.92119
G01 X41.44131Y62.90331
G01 X41.51061Y62.87851
G01 X41.57715Y62.84704
G01 X41.64028Y62.8092
G01 X41.69939Y62.76536
G01 X41.75393Y62.71593
G01 X41.80336Y62.66139
G01 X41.8472Y62.60228
G01 X41.88504Y62.53915
G01 X41.91651Y62.47261
G01 X41.94131Y62.40331
G01 X41.95919Y62.33192
G01 X41.96999Y62.25911
G01 X41.9736Y62.1856
G01 X41.96999Y62.11209
G01 X41.95919Y62.03928
G01 X41.94131Y61.96789
G01 X41.91651Y61.89859
G01 X41.88504Y61.83205
G01 X41.8472Y61.76892
G01 X41.80336Y61.70981
G01 X41.75393Y61.65527
G01 X41.69939Y61.60584
G01 X41.64028Y61.562
G01 X41.57715Y61.52416
G01 X41.51061Y61.49269
G01 X41.44131Y61.46789
G01 X41.36992Y61.45001
G01 X41.29711Y61.43921
G01 X41.2236Y61.4356
G01 X41.15009Y61.43921
G01 X41.07728Y61.45001
G01 X41.05842Y61.45474
G01 X40.0736Y60.46991
G01 X40.0736Y56.11789
G01 X40.30149Y55.89
G01 X43.452Y55.89
G01 X43.49121Y55.88807
G01 X43.53004Y55.88231
G01 X43.56811Y55.87278
G01 X43.60507Y55.85955
G01 X43.64056Y55.84277
G01 X43.67423Y55.82259
G01 X43.70576Y55.7992
G01 X43.73484Y55.77284
G01 X45.26564Y54.24204
G01 X45.292Y54.21296
G01 X45.31539Y54.18143
G01 X45.33557Y54.14776
G01 X45.35235Y54.11227
G01 X45.36558Y54.07531
G01 X45.37511Y54.03724
G01 X45.38087Y53.99841
G01 X45.3828Y53.9592
G01 X45.3828Y50.59102
G01 X45.42726Y50.56438
G01 X45.49031Y50.51761
G01 X45.54849Y50.46489
G01 X45.60121Y50.40671
G01 X45.64798Y50.34366
G01 X45.68834Y50.27632
G01 X45.7219Y50.20535
G01 X45.74835Y50.13143
G01 X45.76743Y50.05527
G01 X45.77895Y49.97761
G01 X45.7828Y49.8992
G01 X45.77895Y49.82079
G01 X45.76743Y49.74313
G01 X45.74835Y49.66697
G01 X45.7219Y49.59305
G01 X45.68834Y49.52208
G01 X45.64798Y49.45474
G01 X45.60121Y49.39169
G01 X45.54849Y49.33351
G01 X45.49031Y49.28079
G01 X45.42726Y49.23402
G01 X45.35992Y49.19366
G01 X45.28895Y49.1601
G01 X45.21503Y49.13365
G01 X45.13887Y49.11457
G01 X45.06121Y49.10305
G01 X44.9828Y49.0992
G01 X44.90439Y49.10305
G01 X44.82673Y49.11457
G01 X44.75057Y49.13365
G01 X44.67665Y49.1601
G01 X44.60568Y49.19366
G01 X44.53834Y49.23402
G01 X44.47529Y49.28079
G01 X44.41711Y49.33351
G01 X44.36439Y49.39169
G01 X44.31762Y49.45474
G01 X44.27726Y49.52208
G01 X44.2437Y49.59305
G01 X44.21725Y49.66697
G01 X44.19817Y49.74313
G01 X44.18665Y49.82079
G01 X44.1828Y49.8992
G01 X44.18665Y49.97761
G01 X44.19817Y50.05527
G01 X44.21725Y50.13143
G01 X44.2437Y50.20535
G01 X44.27726Y50.27632
G01 X44.31762Y50.34366
G01 X44.36439Y50.40671
G01 X44.41711Y50.46489
G01 X44.47529Y50.51761
G01 X44.53834Y50.56438
G01 X44.5828Y50.59102
G01 X44.5828Y53.79351
G01 X43.28631Y55.09
G01 X40.1358Y55.09
G01 X40.09659Y55.09193
G01 X40.05776Y55.09769
G01 X40.01969Y55.10722
G01 X39.98273Y55.12045
G01 X39.94724Y55.13723
G01 X39.91357Y55.15741
G01 X39.89547Y55.17084
G01 X39.88204Y55.1808
G01 X39.85296Y55.20716
G01 X39.39076Y55.66936
G01 X39.3644Y55.69844
G01 X39.34101Y55.72997
G01 X39.32083Y55.76364
G01 X39.30405Y55.79913
G01 X39.29082Y55.83609
G01 X39.28129Y55.87416
G01 X39.27553Y55.91299
G01 X39.2736Y55.9522
G01 X39.2736Y59.66991
G01 X38.38604Y58.78236
G01 X38.35696Y58.756
G01 X38.32543Y58.73261
G01 X38.29176Y58.71243
G01 X38.25627Y58.69565
G01 X38.21931Y58.68242
G01 X38.18124Y58.67289
G01 X38.14241Y58.66713
G01 X38.1032Y58.6652
G01 X35.952Y58.6652
G01 X35.91279Y58.66713
G01 X35.87396Y58.67289
G01 X35.83589Y58.68242
G01 X35.79893Y58.69565
G01 X35.76344Y58.71243
G01 X35.72977Y58.73261
G01 X35.69824Y58.756
G01 X35.66916Y58.78236
G01 X33.13955Y61.31197
G01 X33.08927Y61.29937
G01 X33.01161Y61.28785
G01 X32.9332Y61.284
G01 X32.85479Y61.28785
G01 X32.77713Y61.29937
G01 X32.70097Y61.31845
G01 X32.62705Y61.3449
G01 X32.55608Y61.37846
G01 X32.48874Y61.41882
G01 X32.42569Y61.46559
G01 X32.36751Y61.51831
G01 X32.31479Y61.57649
G01 X32.26802Y61.63954
G01 X32.22766Y61.70688
G01 X32.1941Y61.77785
G01 X32.16765Y61.85177
G01 X32.14857Y61.92793
G01 X32.13705Y62.00559
G01 X32.1332Y62.084
G01 X32.13705Y62.16241
G01 X32.14857Y62.24007
G01 X32.16765Y62.31623
G01 X32.1941Y62.39015
G01 X32.22766Y62.46112
G01 X32.22766Y62.46112
M5
G01 X26.35787Y25.13631
M3
G01 X26.37465Y25.10082
G01 X26.38788Y25.06386
G01 X26.39741Y25.02579
G01 X26.40317Y24.98696
G01 X26.4051Y24.94775
G01 X26.4051Y22.37657
G01 X26.44956Y22.34993
G01 X26.51261Y22.30316
G01 X26.57079Y22.25044
G01 X26.62351Y22.19226
G01 X26.67028Y22.12921
G01 X26.71064Y22.06187
G01 X26.7442Y21.9909
G01 X26.77065Y21.91698
G01 X26.78973Y21.84082
G01 X26.80125Y21.76316
G01 X26.8051Y21.68475
G01 X26.80125Y21.60634
G01 X26.78973Y21.52868
G01 X26.77065Y21.45252
G01 X26.7442Y21.3786
G01 X26.71064Y21.30763
G01 X26.67028Y21.24029
G01 X26.62351Y21.17724
G01 X26.57079Y21.11906
G01 X26.51261Y21.06634
G01 X26.44956Y21.01957
G01 X26.38222Y20.97921
G01 X26.31125Y20.94565
G01 X26.23733Y20.9192
G01 X26.16117Y20.90012
G01 X26.08351Y20.8886
G01 X26.0051Y20.88475
G01 X25.92669Y20.8886
G01 X25.84903Y20.90012
G01 X25.77287Y20.9192
G01 X25.69895Y20.94565
G01 X25.62798Y20.97921
G01 X25.56064Y21.01957
G01 X25.49759Y21.06634
G01 X25.43941Y21.11906
G01 X25.38669Y21.17724
G01 X25.33992Y21.24029
G01 X25.29956Y21.30763
G01 X25.266Y21.3786
G01 X25.23955Y21.45252
G01 X25.22047Y21.52868
G01 X25.20895Y21.60634
G01 X25.2051Y21.68475
G01 X25.20895Y21.76316
G01 X25.22047Y21.84082
G01 X25.23955Y21.91698
G01 X25.266Y21.9909
G01 X25.29956Y22.06187
G01 X25.33992Y22.12921
G01 X25.38669Y22.19226
G01 X25.43941Y22.25044
G01 X25.49759Y22.30316
G01 X25.56064Y22.34993
G01 X25.6051Y22.37657
G01 X25.6051Y24.54297
G01 X25.56359Y24.52334
G01 X25.41576Y24.47045
G01 X25.26344Y24.43229
G01 X25.10813Y24.40925
G01 X24.9513Y24.40155
G01 X24.79447Y24.40925
G01 X24.63916Y24.43229
G01 X24.48684Y24.47045
G01 X24.33901Y24.52334
G01 X24.19707Y24.59048
G01 X24.06239Y24.6712
G01 X23.93627Y24.76473
G01 X23.81993Y24.87018
G01 X23.71448Y24.98652
G01 X23.62095Y25.11264
G01 X23.54023Y25.24732
G01 X23.47309Y25.38926
G01 X23.4202Y25.53709
G01 X23.38204Y25.68941
G01 X23.359Y25.84472
G01 X23.3513Y26.00155
G01 X23.359Y26.15838
G01 X23.38204Y26.31369
G01 X23.4202Y26.46601
G01 X23.47309Y26.61384
G01 X23.54023Y26.75578
G01 X23.57439Y26.81278
G01 X22.42741Y27.95975
G01 X20.57692Y27.95975
G01 X20.55028Y27.91529
G01 X20.50351Y27.85224
G01 X20.45079Y27.79406
G01 X20.39261Y27.74134
G01 X20.32956Y27.69457
G01 X20.26222Y27.65421
G01 X20.19125Y27.62065
G01 X20.11733Y27.5942
G01 X20.04117Y27.57512
G01 X19.96351Y27.5636
G01 X19.8851Y27.55975
G01 X19.80669Y27.5636
G01 X19.72903Y27.57512
G01 X19.65287Y27.5942
G01 X19.57895Y27.62065
G01 X19.50798Y27.65421
G01 X19.44064Y27.69457
G01 X19.37759Y27.74134
G01 X19.31941Y27.79406
G01 X19.26669Y27.85224
G01 X19.21992Y27.91529
G01 X19.17956Y27.98263
G01 X19.146Y28.0536
G01 X19.11955Y28.12752
G01 X19.10047Y28.20368
G01 X19.08895Y28.28134
G01 X19.0851Y28.35975
G01 X19.08895Y28.43816
G01 X19.10047Y28.51582
G01 X19.11955Y28.59198
G01 X19.146Y28.6659
G01 X19.17956Y28.73687
G01 X19.21992Y28.80421
G01 X19.26669Y28.86726
G01 X19.31941Y28.92544
G01 X19.37759Y28.97816
G01 X19.44064Y29.02493
G01 X19.50798Y29.06529
G01 X19.57895Y29.09885
G01 X19.65287Y29.1253
G01 X19.72903Y29.14438
G01 X19.80669Y29.1559
G01 X19.8851Y29.15975
G01 X19.96351Y29.1559
G01 X20.04117Y29.14438
G01 X20.11733Y29.1253
G01 X20.19125Y29.09885
G01 X20.26222Y29.06529
G01 X20.32956Y29.02493
G01 X20.39261Y28.97816
G01 X20.45079Y28.92544
G01 X20.50351Y28.86726
G01 X20.55028Y28.80421
G01 X20.57692Y28.75975
G01 X22.5931Y28.75975
G01 X22.63231Y28.75782
G01 X22.67114Y28.75206
G01 X22.70921Y28.74253
G01 X22.74617Y28.7293
G01 X22.78166Y28.71252
G01 X22.81533Y28.69234
G01 X22.84686Y28.66895
G01 X22.87594Y28.64259
G01 X24.14007Y27.37846
G01 X24.19707Y27.41262
G01 X24.33901Y27.47976
G01 X24.48684Y27.53265
G01 X24.63916Y27.57081
G01 X24.79447Y27.59385
G01 X24.9513Y27.60155
G01 X25.10813Y27.59385
G01 X25.26344Y27.57081
G01 X25.41576Y27.53265
G01 X25.56359Y27.47976
G01 X25.70553Y27.41262
G01 X25.84021Y27.3319
G01 X25.96633Y27.23837
G01 X26.08267Y27.13292
G01 X26.18812Y27.01658
G01 X26.28165Y26.89046
G01 X26.36237Y26.75578
G01 X26.42951Y26.61384
G01 X26.4824Y26.46601
G01 X26.52056Y26.31369
G01 X26.5436Y26.15838
G01 X26.5513Y26.00155
G01 X26.5436Y25.84472
G01 X26.52056Y25.68941
G01 X26.4824Y25.53709
G01 X26.42951Y25.38926
G01 X26.36237Y25.24732
G01 X26.3257Y25.18614
G01 X26.33769Y25.16998
G01 X26.35787Y25.13631
G01 X26.35787Y25.13631
M5
G01 X31.06005Y57.78777
M3
G01 X31.04097Y57.86393
G01 X31.02945Y57.94159
G01 X31.0256Y58.02
G01 X31.02945Y58.09841
G01 X31.04097Y58.17607
G01 X31.06005Y58.25223
G01 X31.0865Y58.32615
G01 X31.12006Y58.39712
G01 X31.16042Y58.46446
G01 X31.20719Y58.52751
G01 X31.25991Y58.58569
G01 X31.31809Y58.63841
G01 X31.38114Y58.68518
G01 X31.44848Y58.72554
G01 X31.51945Y58.7591
G01 X31.59337Y58.78555
G01 X31.66953Y58.80463
G01 X31.74719Y58.81615
G01 X31.8256Y58.82
G01 X31.90401Y58.81615
G01 X31.98167Y58.80463
G01 X32.05783Y58.78555
G01 X32.13175Y58.7591
G01 X32.20272Y58.72554
G01 X32.27006Y58.68518
G01 X32.33311Y58.63841
G01 X32.39129Y58.58569
G01 X32.44401Y58.52751
G01 X32.49078Y58.46446
G01 X32.53114Y58.39712
G01 X32.5647Y58.32615
G01 X32.59115Y58.25223
G01 X32.61023Y58.17607
G01 X32.62175Y58.09841
G01 X32.6256Y58.02
G01 X32.62175Y57.94159
G01 X32.61023Y57.86393
G01 X32.59115Y57.78777
G01 X32.5647Y57.71385
G01 X32.53114Y57.64288
G01 X32.49078Y57.57554
G01 X32.44401Y57.51249
G01 X32.39129Y57.45431
G01 X32.33311Y57.40159
G01 X32.2764Y57.35953
G01 X32.2764Y55.0584
G01 X32.6264Y55.0584
G01 X32.6264Y53.5584
G01 X32.2514Y53.5584
G01 X32.2514Y50.3084
G01 X32.6014Y50.3084
G01 X32.6014Y48.8084
G01 X32.2514Y48.8084
G01 X32.2514Y48.14165
G01 X32.24947Y48.10244
G01 X32.24371Y48.06361
G01 X32.23418Y48.02554
G01 X32.22095Y47.98858
G01 X32.20417Y47.95309
G01 X32.18399Y47.91942
G01 X32.1606Y47.88789
G01 X32.13424Y47.85881
G01 X26.5513Y42.27586
G01 X26.5513Y39.64155
G01 X25.16759Y39.64155
G01 X21.22294Y35.69691
G01 X21.19386Y35.67055
G01 X21.16233Y35.64716
G01 X21.12866Y35.62698
G01 X21.09317Y35.6102
G01 X21.05621Y35.59697
G01 X21.01814Y35.58744
G01 X20.97931Y35.58168
G01 X20.9401Y35.57975
G01 X20.57692Y35.57975
G01 X20.55028Y35.53529
G01 X20.50351Y35.47224
G01 X20.45079Y35.41406
G01 X20.39261Y35.36134
G01 X20.32956Y35.31457
G01 X20.26222Y35.27421
G01 X20.19125Y35.24065
G01 X20.11733Y35.2142
G01 X20.04117Y35.19512
G01 X19.96351Y35.1836
G01 X19.8851Y35.17975
G01 X19.80669Y35.1836
G01 X19.72903Y35.19512
G01 X19.65287Y35.2142
G01 X19.57895Y35.24065
G01 X19.50798Y35.27421
G01 X19.44064Y35.31457
G01 X19.37759Y35.36134
G01 X19.31941Y35.41406
G01 X19.26669Y35.47224
G01 X19.21992Y35.53529
G01 X19.17956Y35.60263
G01 X19.146Y35.6736
G01 X19.11955Y35.74752
G01 X19.10047Y35.82368
G01 X19.08895Y35.90134
G01 X19.0851Y35.97975
G01 X19.08895Y36.05816
G01 X19.10047Y36.13582
G01 X19.11955Y36.21198
G01 X19.146Y36.2859
G01 X19.17956Y36.35687
G01 X19.21992Y36.42421
G01 X19.26669Y36.48726
G01 X19.31941Y36.54544
G01 X19.37759Y36.59816
G01 X19.44064Y36.64493
G01 X19.50798Y36.68529
G01 X19.57895Y36.71885
G01 X19.65287Y36.7453
G01 X19.72903Y36.76438
G01 X19.80669Y36.7759
G01 X19.8851Y36.77975
G01 X19.96351Y36.7759
G01 X20.04117Y36.76438
G01 X20.11733Y36.7453
G01 X20.19125Y36.71885
G01 X20.26222Y36.68529
G01 X20.32956Y36.64493
G01 X20.39261Y36.59816
G01 X20.45079Y36.54544
G01 X20.50351Y36.48726
G01 X20.55028Y36.42421
G01 X20.57692Y36.37975
G01 X20.77441Y36.37975
G01 X24.03621Y39.64155
G01 X23.3513Y39.64155
G01 X23.3513Y42.84155
G01 X25.98561Y42.84155
G01 X31.4514Y48.30734
G01 X31.4514Y48.8084
G01 X31.1014Y48.8084
G01 X31.1014Y50.3084
G01 X31.4514Y50.3084
G01 X31.4514Y53.5584
G01 X31.1264Y53.5584
G01 X31.1264Y55.0584
G01 X31.4764Y55.0584
G01 X31.4764Y57.30126
G01 X31.44848Y57.31446
G01 X31.38114Y57.35482
G01 X31.31809Y57.40159
G01 X31.25991Y57.45431
G01 X31.20719Y57.51249
G01 X31.16042Y57.57554
G01 X31.12006Y57.64288
G01 X31.0865Y57.71385
G01 X31.06005Y57.78777
G01 X31.06005Y57.78777
M5
G01 X20.29828Y25.96975
M3
G01 X20.32492Y26.01421
G01 X20.37169Y26.07726
G01 X20.42441Y26.13544
G01 X20.48259Y26.18816
G01 X20.54564Y26.23493
G01 X20.61298Y26.27529
G01 X20.68395Y26.30885
G01 X20.75787Y26.3353
G01 X20.83403Y26.35438
G01 X20.91169Y26.3659
G01 X20.9901Y26.36975
G01 X21.06851Y26.3659
G01 X21.14617Y26.35438
G01 X21.22233Y26.3353
G01 X21.29625Y26.30885
G01 X21.36722Y26.27529
G01 X21.43456Y26.23493
G01 X21.49761Y26.18816
G01 X21.55579Y26.13544
G01 X21.60851Y26.07726
G01 X21.65528Y26.01421
G01 X21.69564Y25.94687
G01 X21.7292Y25.8759
G01 X21.75565Y25.80198
G01 X21.77473Y25.72582
G01 X21.78625Y25.64816
G01 X21.7901Y25.56975
G01 X21.78625Y25.49134
G01 X21.77473Y25.41368
G01 X21.75565Y25.33752
G01 X21.7292Y25.2636
G01 X21.69564Y25.19263
G01 X21.65528Y25.12529
G01 X21.60851Y25.06224
G01 X21.55579Y25.00406
G01 X21.49761Y24.95134
G01 X21.43456Y24.90457
G01 X21.36722Y24.86421
G01 X21.29625Y24.83065
G01 X21.22233Y24.8042
G01 X21.14617Y24.78512
G01 X21.06851Y24.7736
G01 X20.9901Y24.76975
G01 X20.91169Y24.7736
G01 X20.83403Y24.78512
G01 X20.75787Y24.8042
G01 X20.68395Y24.83065
G01 X20.61298Y24.86421
G01 X20.54564Y24.90457
G01 X20.48259Y24.95134
G01 X20.42441Y25.00406
G01 X20.37169Y25.06224
G01 X20.32492Y25.12529
G01 X20.29828Y25.16975
G01 X18.79579Y25.16975
G01 X17.2651Y23.63906
G01 X17.2651Y23.30546
G01 X17.31411Y23.28228
G01 X17.39428Y23.23422
G01 X17.46936Y23.17854
G01 X17.53862Y23.11577
G01 X17.60139Y23.04651
G01 X17.65707Y22.97143
G01 X17.70513Y22.89126
G01 X17.7451Y22.80676
G01 X17.77659Y22.71875
G01 X17.7993Y22.62807
G01 X17.81301Y22.53561
G01 X17.8176Y22.34725
G01 X17.81301Y22.25389
G01 X17.7993Y22.16143
G01 X17.77659Y22.07075
G01 X17.7451Y21.98274
G01 X17.70513Y21.89824
G01 X17.65707Y21.81807
G01 X17.60139Y21.74299
G01 X17.53862Y21.67373
G01 X17.46936Y21.61096
G01 X17.39428Y21.55528
G01 X17.31411Y21.50722
G01 X17.2651Y21.48404
G01 X17.2651Y21.28144
G01 X19.01294Y19.53359
G01 X19.0393Y19.50451
G01 X19.06269Y19.47298
G01 X19.08287Y19.43931
G01 X19.09965Y19.40382
G01 X19.11288Y19.36686
G01 X19.12241Y19.32879
G01 X19.12817Y19.28996
G01 X19.1301Y19.25075
G01 X19.1301Y16.11975
G01 X19.5801Y16.11975
G01 X19.5801Y14.41975
G01 X17.8801Y14.41975
G01 X17.8801Y16.11975
G01 X18.3301Y16.11975
G01 X18.3301Y19.08506
G01 X17.0781Y20.33706
G01 X16.07794Y19.33691
G01 X16.04886Y19.31055
G01 X16.01733Y19.28716
G01 X15.98366Y19.26698
G01 X15.94817Y19.2502
G01 X15.91121Y19.23697
G01 X15.87314Y19.22744
G01 X15.83431Y19.22168
G01 X15.7951Y19.21975
G01 X13.3801Y19.21975
G01 X13.34089Y19.22168
G01 X13.30206Y19.22744
G01 X13.26399Y19.23697
G01 X13.22703Y19.2502
G01 X13.19154Y19.26698
G01 X13.15787Y19.28716
G01 X13.12634Y19.31055
G01 X13.09726Y19.33691
G01 X11.02226Y21.41191
G01 X10.9959Y21.44099
G01 X10.97251Y21.47252
G01 X10.95233Y21.50619
G01 X10.93555Y21.54168
G01 X10.92232Y21.57864
G01 X10.91279Y21.61671
G01 X10.90703Y21.65554
G01 X10.9051Y21.69475
G01 X10.9051Y24.20407
G01 X10.90332Y24.20904
G01 X10.89379Y24.24711
G01 X10.88803Y24.28594
G01 X10.8861Y24.32515
G01 X10.88803Y24.36436
G01 X10.89379Y24.40319
G01 X10.90332Y24.44126
G01 X10.9051Y24.44623
G01 X10.9051Y40.37275
G01 X10.90703Y40.41196
G01 X10.91279Y40.45079
G01 X10.92232Y40.48886
G01 X10.93555Y40.52582
G01 X10.95233Y40.56131
G01 X10.97251Y40.59498
G01 X10.9959Y40.62651
G01 X11.02226Y40.65559
G01 X16.20087Y45.8342
G01 X16.18827Y45.88448
G01 X16.17675Y45.96214
G01 X16.1729Y46.04055
G01 X16.17675Y46.11896
G01 X16.18827Y46.19662
G01 X16.20735Y46.27278
G01 X16.2338Y46.3467
G01 X16.26736Y46.41767
G01 X16.30772Y46.48501
G01 X16.35449Y46.54806
G01 X16.40721Y46.60624
G01 X16.46539Y46.65896
G01 X16.52844Y46.70573
G01 X16.5729Y46.73237
G01 X16.5729Y48.00918
G01 X16.56014Y48.01682
G01 X16.49709Y48.06359
G01 X16.43891Y48.11631
G01 X16.38619Y48.17449
G01 X16.33942Y48.23754
G01 X16.29906Y48.30488
G01 X16.2655Y48.37585
G01 X16.23905Y48.44977
G01 X16.21997Y48.52593
G01 X16.20845Y48.60359
G01 X16.2046Y48.682
G01 X16.20845Y48.76041
G01 X16.21997Y48.83807
G01 X16.23905Y48.91423
G01 X16.2655Y48.98815
G01 X16.29906Y49.05912
G01 X16.33942Y49.12646
G01 X16.38619Y49.18951
G01 X16.43891Y49.24769
G01 X16.49709Y49.30041
G01 X16.56014Y49.34718
G01 X16.6046Y49.37382
G01 X16.6046Y50.46308
G01 X16.58534Y50.47462
G01 X16.52229Y50.52139
G01 X16.46411Y50.57411
G01 X16.41139Y50.63229
G01 X16.36462Y50.69534
G01 X16.32426Y50.76268
G01 X16.2907Y50.83365
G01 X16.26425Y50.90757
G01 X16.24517Y50.98373
G01 X16.23365Y51.06139
G01 X16.2298Y51.1398
G01 X16.23365Y51.21821
G01 X16.24517Y51.29587
G01 X16.26425Y51.37203
G01 X16.2907Y51.44595
G01 X16.32426Y51.51692
G01 X16.36462Y51.58426
G01 X16.41139Y51.64731
G01 X16.46411Y51.70549
G01 X16.52229Y51.75821
G01 X16.58534Y51.80498
G01 X16.6298Y51.83162
G01 X16.6298Y52.91981
G01 X16.62087Y52.91757
G01 X16.54321Y52.90605
G01 X16.4648Y52.9022
G01 X16.38639Y52.90605
G01 X16.30873Y52.91757
G01 X16.23257Y52.93665
G01 X16.15865Y52.9631
G01 X16.08768Y52.99666
G01 X16.02034Y53.03702
G01 X15.95729Y53.08379
G01 X15.89911Y53.13651
G01 X15.84639Y53.19469
G01 X15.79962Y53.25774
G01 X15.75926Y53.32508
G01 X15.7257Y53.39605
G01 X15.69925Y53.46997
G01 X15.68017Y53.54613
G01 X15.66865Y53.62379
G01 X15.6648Y53.7022
G01 X15.66865Y53.78061
G01 X15.68017Y53.85827
G01 X15.69925Y53.93443
G01 X15.7257Y54.00835
G01 X15.75926Y54.07932
G01 X15.79962Y54.14666
G01 X15.84222Y54.20409
G01 X14.52696Y55.51936
G01 X14.5006Y55.54844
G01 X14.47721Y55.57997
G01 X14.45703Y55.61364
G01 X14.45123Y55.62591
G01 X14.44025Y55.64913
G01 X14.42702Y55.68609
G01 X14.41749Y55.72416
G01 X14.41173Y55.76299
G01 X14.4098Y55.8022
G01 X14.4098Y65.5372
G01 X14.4098Y65.5372
G01 X14.41094Y65.56031
G01 X14.41173Y65.57641
G01 X14.41173Y65.57641
G01 X14.41173Y65.57641
G01 X14.41455Y65.59542
G01 X14.41749Y65.61524
G01 X14.41749Y65.61524
G01 X14.41756Y65.61554
G01 X14.42702Y65.65331
G01 X14.42702Y65.65331
G01 X14.42702Y65.65331
G01 X14.44025Y65.69027
G01 X14.4498Y65.71047
G01 X14.4498Y72.5872
G01 X14.45173Y72.62641
G01 X14.45749Y72.66524
G01 X14.4635Y72.68925
G01 X14.4635Y77.85864
G01 X14.46543Y77.89785
G01 X14.47119Y77.93668
G01 X14.48072Y77.97475
G01 X14.49395Y78.01171
G01 X14.51073Y78.0472
G01 X14.51494Y78.05422
G01 X14.53091Y78.08087
G01 X14.55036Y78.10708
G01 X14.5543Y78.1124
G01 X14.58066Y78.14148
G01 X15.51922Y79.08004
G01 X15.5483Y79.1064
G01 X15.57983Y79.12979
G01 X15.58235Y79.1313
G01 X15.6135Y79.14997
G01 X15.64503Y79.16488
G01 X15.64899Y79.16675
G01 X15.68595Y79.17998
G01 X15.72402Y79.18951
G01 X15.76285Y79.19527
G01 X15.80206Y79.1972
G01 X26.60881Y79.1972
G01 X26.606Y79.2544
G01 X26.60985Y79.33281
G01 X26.62137Y79.41047
G01 X26.64045Y79.48663
G01 X26.6669Y79.56055
G01 X26.70046Y79.63152
G01 X26.74082Y79.69886
G01 X26.78759Y79.76191
G01 X26.84031Y79.82009
G01 X26.89849Y79.87281
G01 X26.96154Y79.91958
G01 X27.02888Y79.95994
G01 X27.09985Y79.9935
G01 X27.17377Y80.01995
G01 X27.24993Y80.03903
G01 X27.32759Y80.05055
G01 X27.406Y80.0544
G01 X27.48441Y80.05055
G01 X27.56207Y80.03903
G01 X27.63823Y80.01995
G01 X27.71215Y79.9935
G01 X27.78312Y79.95994
G01 X27.85046Y79.91958
G01 X27.91351Y79.87281
G01 X27.97169Y79.82009
G01 X28.02441Y79.76191
G01 X28.07118Y79.69886
G01 X28.11154Y79.63152
G01 X28.1451Y79.56055
G01 X28.17155Y79.48663
G01 X28.19063Y79.41047
G01 X28.20215Y79.33281
G01 X28.206Y79.2544
G01 X28.20215Y79.17599
G01 X28.19063Y79.09833
G01 X28.17803Y79.04805
G01 X29.19729Y78.0288
G01 X33.584Y78.0288
G01 X33.62321Y78.02687
G01 X33.66204Y78.02111
G01 X33.70011Y78.01158
G01 X33.73707Y77.99835
G01 X33.77256Y77.98157
G01 X33.80623Y77.96139
G01 X33.83776Y77.938
G01 X33.86684Y77.91164
G01 X35.448Y76.33049
G01 X35.60676Y76.48924
G01 X36.09916Y76.98164
G01 X36.12824Y77.008
G01 X36.15977Y77.03139
G01 X36.19344Y77.05157
G01 X36.22893Y77.06835
G01 X36.26589Y77.08158
G01 X36.30396Y77.09111
G01 X36.34279Y77.09687
G01 X36.382Y77.0988
G01 X45.33074Y77.0988
G01 X45.36995Y77.09687
G01 X45.40878Y77.09111
G01 X45.44685Y77.08158
G01 X45.48381Y77.06835
G01 X45.5193Y77.05157
G01 X45.55297Y77.03139
G01 X45.5845Y77.008
G01 X45.61358Y76.98164
G01 X50.96124Y71.63398
G01 X50.9876Y71.6049
G01 X51.01099Y71.57337
G01 X51.03117Y71.5397
G01 X51.04795Y71.50421
G01 X51.06118Y71.46725
G01 X51.07071Y71.42918
G01 X51.07647Y71.39035
G01 X51.0784Y71.35114
G01 X51.0784Y57.673
G01 X51.07647Y57.63379
G01 X51.07071Y57.59496
G01 X51.06118Y57.55689
G01 X51.04795Y57.51993
G01 X51.03117Y57.48444
G01 X51.01099Y57.45077
G01 X50.9876Y57.41924
G01 X50.96124Y57.39016
G01 X48.4295Y54.85841
G01 X48.4295Y39.6159
G01 X48.42757Y39.57669
G01 X48.42181Y39.53786
G01 X48.41228Y39.49979
G01 X48.39905Y39.46283
G01 X48.38227Y39.42734
G01 X48.36209Y39.39367
G01 X48.3387Y39.36214
G01 X48.31234Y39.33306
G01 X46.54883Y37.56955
G01 X46.56143Y37.51927
G01 X46.57295Y37.44161
G01 X46.5768Y37.3632
G01 X46.57295Y37.28479
G01 X46.56143Y37.20713
G01 X46.54235Y37.13097
G01 X46.5159Y37.05705
G01 X46.48234Y36.98608
G01 X46.44198Y36.91874
G01 X46.39521Y36.85569
G01 X46.34249Y36.79751
G01 X46.28431Y36.74479
G01 X46.22126Y36.69802
G01 X46.15392Y36.65766
G01 X46.08295Y36.6241
G01 X46.00903Y36.59765
G01 X45.93287Y36.57857
G01 X45.85521Y36.56705
G01 X45.7768Y36.5632
G01 X45.69839Y36.56705
G01 X45.62073Y36.57857
G01 X45.54457Y36.59765
G01 X45.47065Y36.6241
G01 X45.39968Y36.65766
G01 X45.33234Y36.69802
G01 X45.26929Y36.74479
G01 X45.21111Y36.79751
G01 X45.15839Y36.85569
G01 X45.11162Y36.91874
G01 X45.07126Y36.98608
G01 X45.0377Y37.05705
G01 X45.01125Y37.13097
G01 X44.99217Y37.20713
G01 X44.98065Y37.28479
G01 X44.9768Y37.3632
G01 X44.98065Y37.44161
G01 X44.99217Y37.51927
G01 X45.01125Y37.59543
G01 X45.0377Y37.66935
G01 X45.07126Y37.74032
G01 X45.11162Y37.80766
G01 X45.15839Y37.87071
G01 X45.21111Y37.92889
G01 X45.26929Y37.98161
G01 X45.33234Y38.02838
G01 X45.39968Y38.06874
G01 X45.47065Y38.1023
G01 X45.54457Y38.12875
G01 X45.62073Y38.14783
G01 X45.69839Y38.15935
G01 X45.7768Y38.1632
G01 X45.85521Y38.15935
G01 X45.93287Y38.14783
G01 X45.98315Y38.13523
G01 X47.6295Y39.78159
G01 X47.6295Y55.0241
G01 X47.63143Y55.06331
G01 X47.63719Y55.10214
G01 X47.64672Y55.14021
G01 X47.65995Y55.17717
G01 X47.67673Y55.21266
G01 X47.69691Y55.24633
G01 X47.7203Y55.27786
G01 X47.74666Y55.30694
G01 X50.2784Y57.83869
G01 X50.2784Y71.18545
G01 X45.16505Y76.2988
G01 X36.54769Y76.2988
G01 X36.17244Y75.92356
G01 X35.848Y75.59911
G01 X35.848Y73.84949
G01 X36.85165Y72.84583
G01 X36.90193Y72.85843
G01 X36.97959Y72.86995
G01 X37.058Y72.8738
G01 X37.13641Y72.86995
G01 X37.21407Y72.85843
G01 X37.29023Y72.83935
G01 X37.36415Y72.8129
G01 X37.43512Y72.77934
G01 X37.50246Y72.73898
G01 X37.56551Y72.69221
G01 X37.62369Y72.63949
G01 X37.67641Y72.58131
G01 X37.72318Y72.51826
G01 X37.76354Y72.45092
G01 X37.7971Y72.37995
G01 X37.82355Y72.30603
G01 X37.84263Y72.22987
G01 X37.85415Y72.15221
G01 X37.858Y72.0738
G01 X37.85415Y71.99539
G01 X37.84263Y71.91773
G01 X37.82355Y71.84157
G01 X37.7971Y71.76765
G01 X37.76354Y71.69668
G01 X37.72318Y71.62934
G01 X37.67641Y71.56629
G01 X37.62369Y71.50811
G01 X37.56551Y71.45539
G01 X37.50246Y71.40862
G01 X37.43512Y71.36826
G01 X37.36415Y71.3347
G01 X37.29023Y71.30825
G01 X37.21407Y71.28917
G01 X37.13641Y71.27765
G01 X37.058Y71.2738
G01 X36.97959Y71.27765
G01 X36.90193Y71.28917
G01 X36.85165Y71.30177
G01 X35.866Y70.31611
G01 X35.866Y64.5904
G01 X35.866Y64.1768
G01 X35.866Y63.83199
G01 X36.85965Y62.83833
G01 X36.90993Y62.85093
G01 X36.98759Y62.86245
G01 X37.066Y62.8663
G01 X37.14441Y62.86245
G01 X37.22207Y62.85093
G01 X37.29823Y62.83185
G01 X37.37215Y62.8054
G01 X37.44312Y62.77184
G01 X37.51046Y62.73148
G01 X37.57351Y62.68471
G01 X37.63169Y62.63199
G01 X37.68441Y62.57381
G01 X37.73118Y62.51076
G01 X37.77154Y62.44342
G01 X37.8051Y62.37245
G01 X37.83155Y62.29853
G01 X37.85063Y62.22237
G01 X37.86215Y62.14471
G01 X37.866Y62.0663
G01 X37.86215Y61.98789
G01 X37.85063Y61.91023
G01 X37.83155Y61.83407
G01 X37.8051Y61.76015
G01 X37.77154Y61.68918
G01 X37.73118Y61.62184
G01 X37.68441Y61.55879
G01 X37.63169Y61.50061
G01 X37.57351Y61.44789
G01 X37.51046Y61.40112
G01 X37.44312Y61.36076
G01 X37.37215Y61.3272
G01 X37.29823Y61.30075
G01 X37.22207Y61.28167
G01 X37.14441Y61.27015
G01 X37.066Y61.2663
G01 X36.98759Y61.27015
G01 X36.90993Y61.28167
G01 X36.83377Y61.30075
G01 X36.75985Y61.3272
G01 X36.68888Y61.36076
G01 X36.62154Y61.40112
G01 X36.55849Y61.44789
G01 X36.50031Y61.50061
G01 X36.44759Y61.55879
G01 X36.40082Y61.62184
G01 X36.36046Y61.68918
G01 X36.3269Y61.76015
G01 X36.30045Y61.83407
G01 X36.28137Y61.91023
G01 X36.26985Y61.98789
G01 X36.266Y62.0663
G01 X36.26985Y62.14471
G01 X36.28137Y62.22237
G01 X36.29397Y62.27265
G01 X35.18316Y63.38346
G01 X35.1568Y63.41254
G01 X35.13341Y63.44407
G01 X35.11323Y63.47774
G01 X35.09645Y63.51323
G01 X35.08322Y63.55019
G01 X35.07369Y63.58826
G01 X35.06793Y63.62709
G01 X35.066Y63.6663
G01 X35.066Y64.1768
G01 X35.066Y64.5904
G01 X35.066Y69.51611
G01 X34.97104Y69.42116
G01 X34.94196Y69.3948
G01 X34.91043Y69.37141
G01 X34.87676Y69.35123
G01 X34.84127Y69.33445
G01 X34.80431Y69.32122
G01 X34.76624Y69.31169
G01 X34.72741Y69.30593
G01 X34.6882Y69.304
G01 X33.62502Y69.304
G01 X33.59838Y69.25954
G01 X33.55161Y69.19649
G01 X33.49889Y69.13831
G01 X33.44071Y69.08559
G01 X33.37766Y69.03882
G01 X33.31032Y68.99846
G01 X33.23935Y68.9649
G01 X33.16543Y68.93845
G01 X33.08927Y68.91937
G01 X33.01161Y68.90785
G01 X32.9332Y68.904
G01 X32.85479Y68.90785
G01 X32.77713Y68.91937
G01 X32.70097Y68.93845
G01 X32.62705Y68.9649
G01 X32.55608Y68.99846
G01 X32.48874Y69.03882
G01 X32.42569Y69.08559
G01 X32.36751Y69.13831
G01 X32.31479Y69.19649
G01 X32.26802Y69.25954
G01 X32.22766Y69.32688
G01 X32.1941Y69.39785
G01 X32.16765Y69.47177
G01 X32.14857Y69.54793
G01 X32.13705Y69.62559
G01 X32.1332Y69.704
G01 X32.13705Y69.78241
G01 X32.14857Y69.86007
G01 X32.16765Y69.93623
G01 X32.1941Y70.01015
G01 X32.22766Y70.08112
G01 X32.26802Y70.14846
G01 X32.31479Y70.21151
G01 X32.36751Y70.26969
G01 X32.42569Y70.32241
G01 X32.48874Y70.36918
G01 X32.55608Y70.40954
G01 X32.62705Y70.4431
G01 X32.70097Y70.46955
G01 X32.77713Y70.48863
G01 X32.85479Y70.50015
G01 X32.9332Y70.504
G01 X33.01161Y70.50015
G01 X33.08927Y70.48863
G01 X33.16543Y70.46955
G01 X33.23935Y70.4431
G01 X33.31032Y70.40954
G01 X33.37766Y70.36918
G01 X33.44071Y70.32241
G01 X33.49889Y70.26969
G01 X33.55161Y70.21151
G01 X33.59838Y70.14846
G01 X33.62502Y70.104
G01 X34.52251Y70.104
G01 X35.18316Y70.76464
G01 X36.28597Y71.86745
G01 X36.27337Y71.91773
G01 X36.26185Y71.99539
G01 X36.258Y72.0738
G01 X36.26185Y72.15221
G01 X36.27337Y72.22987
G01 X36.28597Y72.28015
G01 X35.16516Y73.40096
G01 X35.1388Y73.43004
G01 X35.11541Y73.46157
G01 X35.09523Y73.49524
G01 X35.07845Y73.53073
G01 X35.06522Y73.56769
G01 X35.05569Y73.60576
G01 X35.04993Y73.64459
G01 X35.048Y73.6838
G01 X35.048Y75.59911
G01 X33.41831Y77.2288
G01 X29.0316Y77.2288
G01 X28.99239Y77.23073
G01 X28.95356Y77.23649
G01 X28.91549Y77.24602
G01 X28.87853Y77.25925
G01 X28.84304Y77.27603
G01 X28.80937Y77.29621
G01 X28.77784Y77.3196
G01 X28.74876Y77.34596
G01 X27.61235Y78.48237
G01 X27.56207Y78.46977
G01 X27.48441Y78.45825
G01 X27.406Y78.4544
G01 X27.32759Y78.45825
G01 X27.24993Y78.46977
G01 X27.19615Y78.48324
G01 X27.18196Y78.47272
G01 X27.17103Y78.46461
G01 X27.13736Y78.44443
G01 X27.10187Y78.42765
G01 X27.06491Y78.41442
G01 X27.02684Y78.40489
G01 X26.98801Y78.39913
G01 X26.9488Y78.3972
G01 X15.96775Y78.3972
G01 X15.2635Y77.69295
G01 X15.2635Y73.56659
G01 X15.68777Y73.99085
G01 X15.67517Y74.04113
G01 X15.66365Y74.11879
G01 X15.6598Y74.1972
G01 X15.66365Y74.27561
G01 X15.67517Y74.35327
G01 X15.69425Y74.42943
G01 X15.7207Y74.50335
G01 X15.75426Y74.57432
G01 X15.79462Y74.64166
G01 X15.84139Y74.70471
G01 X15.89411Y74.76289
G01 X15.95229Y74.81561
G01 X16.01534Y74.86238
G01 X16.08268Y74.90274
G01 X16.15365Y74.9363
G01 X16.22757Y74.96275
G01 X16.30373Y74.98183
G01 X16.38139Y74.99335
G01 X16.4598Y74.9972
G01 X16.53821Y74.99335
G01 X16.61587Y74.98183
G01 X16.69203Y74.96275
G01 X16.76595Y74.9363
G01 X16.83692Y74.90274
G01 X16.90426Y74.86238
G01 X16.96731Y74.81561
G01 X17.02549Y74.76289
G01 X17.07821Y74.70471
G01 X17.12498Y74.64166
G01 X17.16534Y74.57432
G01 X17.1989Y74.50335
G01 X17.22535Y74.42943
G01 X17.24443Y74.35327
G01 X17.25595Y74.27561
G01 X17.2598Y74.1972
G01 X17.25595Y74.11879
G01 X17.24443Y74.04113
G01 X17.22535Y73.96497
G01 X17.1989Y73.89105
G01 X17.16534Y73.82008
G01 X17.12498Y73.75274
G01 X17.07821Y73.68969
G01 X17.02549Y73.63151
G01 X16.96731Y73.57879
G01 X16.90426Y73.53202
G01 X16.83692Y73.49166
G01 X16.76595Y73.4581
G01 X16.69203Y73.43165
G01 X16.61587Y73.41257
G01 X16.53821Y73.40105
G01 X16.4598Y73.3972
G01 X16.38139Y73.40105
G01 X16.30373Y73.41257
G01 X16.25345Y73.42517
G01 X15.2498Y72.42151
G01 X15.2498Y65.74289
G01 X16.24345Y64.74923
G01 X16.29373Y64.76183
G01 X16.37139Y64.77335
G01 X16.4498Y64.7772
G01 X16.52821Y64.77335
G01 X16.60587Y64.76183
G01 X16.68203Y64.74275
G01 X16.75595Y64.7163
G01 X16.82692Y64.68274
G01 X16.89426Y64.64238
G01 X16.95731Y64.59561
G01 X17.01549Y64.54289
G01 X17.06821Y64.48471
G01 X17.11498Y64.42166
G01 X17.15534Y64.35432
G01 X17.1889Y64.28335
G01 X17.21535Y64.20943
G01 X17.23443Y64.13327
G01 X17.24595Y64.05561
G01 X17.2498Y63.9772
G01 X17.24595Y63.89879
G01 X17.23443Y63.82113
G01 X17.21535Y63.74497
G01 X17.1889Y63.67105
G01 X17.15534Y63.60008
G01 X17.11498Y63.53274
G01 X17.06821Y63.46969
G01 X17.01549Y63.41151
G01 X16.95731Y63.35879
G01 X16.89426Y63.31202
G01 X16.82692Y63.27166
G01 X16.75595Y63.2381
G01 X16.68203Y63.21165
G01 X16.60587Y63.19257
G01 X16.52821Y63.18105
G01 X16.4498Y63.1772
G01 X16.37139Y63.18105
G01 X16.29373Y63.19257
G01 X16.21757Y63.21165
G01 X16.14365Y63.2381
G01 X16.07268Y63.27166
G01 X16.00534Y63.31202
G01 X15.94229Y63.35879
G01 X15.88411Y63.41151
G01 X15.83139Y63.46969
G01 X15.78462Y63.53274
G01 X15.74426Y63.60008
G01 X15.7107Y63.67105
G01 X15.68425Y63.74497
G01 X15.66517Y63.82113
G01 X15.65365Y63.89879
G01 X15.6498Y63.9772
G01 X15.65365Y64.05561
G01 X15.66517Y64.13327
G01 X15.67777Y64.18355
G01 X15.2098Y64.65151
G01 X15.2098Y55.96789
G01 X16.69264Y54.48504
G01 X16.71373Y54.46178
G01 X16.77095Y54.4413
G01 X16.84192Y54.40774
G01 X16.90926Y54.36738
G01 X16.97231Y54.32061
G01 X17.03049Y54.26789
G01 X17.08321Y54.20971
G01 X17.12998Y54.14666
G01 X17.17034Y54.07932
G01 X17.2039Y54.00835
G01 X17.23035Y53.93443
G01 X17.24943Y53.85827
G01 X17.26095Y53.78061
G01 X17.2648Y53.7022
G01 X17.26095Y53.62379
G01 X17.24943Y53.54613
G01 X17.23683Y53.49585
G01 X17.31264Y53.42004
G01 X17.339Y53.39096
G01 X17.36239Y53.35943
G01 X17.38257Y53.32576
G01 X17.39935Y53.29027
G01 X17.41258Y53.25331
G01 X17.42211Y53.21524
G01 X17.42787Y53.17641
G01 X17.4298Y53.1372
G01 X17.4298Y51.83162
G01 X17.47426Y51.80498
G01 X17.53731Y51.75821
G01 X17.59549Y51.70549
G01 X17.64821Y51.64731
G01 X17.69498Y51.58426
G01 X17.73534Y51.51692
G01 X17.7689Y51.44595
G01 X17.79535Y51.37203
G01 X17.81443Y51.29587
G01 X17.82595Y51.21821
G01 X17.8298Y51.1398
G01 X17.82595Y51.06139
G01 X17.81443Y50.98373
G01 X17.79535Y50.90757
G01 X17.7689Y50.83365
G01 X17.73534Y50.76268
G01 X17.69498Y50.69534
G01 X17.64821Y50.63229
G01 X17.59549Y50.57411
G01 X17.53731Y50.52139
G01 X17.47426Y50.47462
G01 X17.40692Y50.43426
G01 X17.4046Y50.43317
G01 X17.4046Y49.37382
G01 X17.44906Y49.34718
G01 X17.51211Y49.30041
G01 X17.57029Y49.24769
G01 X17.62301Y49.18951
G01 X17.66978Y49.12646
G01 X17.71014Y49.05912
G01 X17.7437Y48.98815
G01 X17.77015Y48.91423
G01 X17.78923Y48.83807
G01 X17.80075Y48.76041
G01 X17.8046Y48.682
G01 X17.80075Y48.60359
G01 X17.78923Y48.52593
G01 X17.77015Y48.44977
G01 X17.7437Y48.37585
G01 X17.71014Y48.30488
G01 X17.66978Y48.23754
G01 X17.62301Y48.17449
G01 X17.57029Y48.11631
G01 X17.51211Y48.06359
G01 X17.44906Y48.01682
G01 X17.38172Y47.97646
G01 X17.3729Y47.97229
G01 X17.3729Y46.73237
G01 X17.41736Y46.70573
G01 X17.48041Y46.65896
G01 X17.53859Y46.60624
G01 X17.59131Y46.54806
G01 X17.63808Y46.48501
G01 X17.67844Y46.41767
G01 X17.712Y46.3467
G01 X17.73845Y46.27278
G01 X17.75753Y46.19662
G01 X17.76905Y46.11896
G01 X17.7729Y46.04055
G01 X17.76905Y45.96214
G01 X17.75753Y45.88448
G01 X17.73845Y45.80832
G01 X17.712Y45.7344
G01 X17.67844Y45.66343
G01 X17.63808Y45.59609
G01 X17.59131Y45.53304
G01 X17.53859Y45.47486
G01 X17.48041Y45.42214
G01 X17.41736Y45.37537
G01 X17.35002Y45.33501
G01 X17.27905Y45.30145
G01 X17.20513Y45.275
G01 X17.12897Y45.25592
G01 X17.05131Y45.2444
G01 X16.9729Y45.24055
G01 X16.89449Y45.2444
G01 X16.81683Y45.25592
G01 X16.76655Y45.26852
G01 X11.7051Y40.20706
G01 X11.7051Y24.30615
G01 X11.7051Y24.30615
G01 X11.7051Y21.86044
G01 X13.54579Y20.01975
G01 X15.62941Y20.01975
G01 X16.4651Y20.85544
G01 X16.4651Y21.11575
G01 X16.4651Y21.48404
G01 X16.41609Y21.50722
G01 X16.33592Y21.55528
G01 X16.26084Y21.61096
G01 X16.19158Y21.67373
G01 X16.12881Y21.74299
G01 X16.07313Y21.81807
G01 X16.02507Y21.89824
G01 X15.9851Y21.98274
G01 X15.95361Y22.07075
G01 X15.9309Y22.16143
G01 X15.91719Y22.25389
G01 X15.9126Y22.44225
G01 X15.91719Y22.53561
G01 X15.9309Y22.62807
G01 X15.95361Y22.71875
G01 X15.9851Y22.80676
G01 X16.02507Y22.89126
G01 X16.07313Y22.97143
G01 X16.12881Y23.04651
G01 X16.19158Y23.11577
G01 X16.26084Y23.17854
G01 X16.33592Y23.23422
G01 X16.41609Y23.28228
G01 X16.4651Y23.30546
G01 X16.4651Y23.80475
G01 X16.46703Y23.84396
G01 X16.47279Y23.88279
G01 X16.48232Y23.92086
G01 X16.49555Y23.95782
G01 X16.51233Y23.99331
G01 X16.53251Y24.02698
G01 X16.5559Y24.05851
G01 X16.58226Y24.08759
G01 X18.34726Y25.85259
G01 X18.37634Y25.87895
G01 X18.40787Y25.90234
G01 X18.44154Y25.92252
G01 X18.47703Y25.9393
G01 X18.51399Y25.95253
G01 X18.55206Y25.96206
G01 X18.59089Y25.96782
G01 X18.6301Y25.96975
G01 X20.29828Y25.96975
G01 X20.29828Y25.96975
M5
G01 X24.46853Y49.46663
M3
G01 X24.54619Y49.47815
G01 X24.6246Y49.482
G01 X24.70301Y49.47815
G01 X24.78067Y49.46663
G01 X24.83095Y49.45403
G01 X25.21816Y49.84124
G01 X25.24724Y49.8676
G01 X25.27877Y49.89099
G01 X25.31244Y49.91117
G01 X25.34793Y49.92795
G01 X25.38489Y49.94118
G01 X25.42296Y49.95071
G01 X25.46179Y49.95647
G01 X25.501Y49.9584
G01 X26.1378Y49.9584
G01 X26.1478Y49.97508
G01 X26.19164Y50.03419
G01 X26.24107Y50.08873
G01 X26.29561Y50.13816
G01 X26.35472Y50.182
G01 X26.41785Y50.21984
G01 X26.48439Y50.25131
G01 X26.55369Y50.27611
G01 X26.62508Y50.29399
G01 X26.69789Y50.30479
G01 X26.7714Y50.3084
G01 X26.84491Y50.30479
G01 X26.91772Y50.29399
G01 X26.98911Y50.27611
G01 X27.05841Y50.25131
G01 X27.12495Y50.21984
G01 X27.18808Y50.182
G01 X27.24719Y50.13816
G01 X27.30173Y50.08873
G01 X27.35116Y50.03419
G01 X27.395Y49.97508
G01 X27.43284Y49.91195
G01 X27.46431Y49.84541
G01 X27.48911Y49.77611
G01 X27.50699Y49.70472
G01 X27.51779Y49.63191
G01 X27.5214Y49.5584
G01 X27.51779Y49.48489
G01 X27.50699Y49.41208
G01 X27.48911Y49.34069
G01 X27.46431Y49.27139
G01 X27.43284Y49.20485
G01 X27.395Y49.14172
G01 X27.35116Y49.08261
G01 X27.30173Y49.02807
G01 X27.24719Y48.97864
G01 X27.18808Y48.9348
G01 X27.12495Y48.89696
G01 X27.05841Y48.86549
G01 X26.98911Y48.84069
G01 X26.91772Y48.82281
G01 X26.84491Y48.81201
G01 X26.7714Y48.8084
G01 X26.69789Y48.81201
G01 X26.62508Y48.82281
G01 X26.55369Y48.84069
G01 X26.48439Y48.86549
G01 X26.41785Y48.89696
G01 X26.35472Y48.9348
G01 X26.29561Y48.97864
G01 X26.24107Y49.02807
G01 X26.19164Y49.08261
G01 X26.1478Y49.14172
G01 X26.1378Y49.1584
G01 X25.66669Y49.1584
G01 X25.39663Y48.88835
G01 X25.40923Y48.83807
G01 X25.42075Y48.76041
G01 X25.4246Y48.682
G01 X25.42075Y48.60359
G01 X25.40923Y48.52593
G01 X25.39015Y48.44977
G01 X25.3637Y48.37585
G01 X25.33014Y48.30488
G01 X25.28978Y48.23754
G01 X25.24301Y48.17449
G01 X25.19029Y48.11631
G01 X25.13211Y48.06359
G01 X25.06906Y48.01682
G01 X25.00172Y47.97646
G01 X24.93075Y47.9429
G01 X24.85683Y47.91645
G01 X24.78067Y47.89737
G01 X24.70301Y47.88585
G01 X24.6246Y47.882
G01 X24.54619Y47.88585
G01 X24.46853Y47.89737
G01 X24.39237Y47.91645
G01 X24.31845Y47.9429
G01 X24.24748Y47.97646
G01 X24.18014Y48.01682
G01 X24.11709Y48.06359
G01 X24.05891Y48.11631
G01 X24.00619Y48.17449
G01 X23.95942Y48.23754
G01 X23.93278Y48.282
G01 X22.78004Y48.282
G01 X20.74493Y46.2469
G01 X20.75753Y46.19662
G01 X20.76905Y46.11896
G01 X20.7729Y46.04055
G01 X20.76905Y45.96214
G01 X20.75753Y45.88448
G01 X20.73845Y45.80832
G01 X20.712Y45.7344
G01 X20.67844Y45.66343
G01 X20.63808Y45.59609
G01 X20.59131Y45.53304
G01 X20.53859Y45.47486
G01 X20.48041Y45.42214
G01 X20.41736Y45.37537
G01 X20.35002Y45.33501
G01 X20.27905Y45.30145
G01 X20.20513Y45.275
G01 X20.12897Y45.25592
G01 X20.05131Y45.2444
G01 X19.9729Y45.24055
G01 X19.89449Y45.2444
G01 X19.81683Y45.25592
G01 X19.74067Y45.275
G01 X19.66675Y45.30145
G01 X19.59578Y45.33501
G01 X19.52844Y45.37537
G01 X19.46539Y45.42214
G01 X19.40721Y45.47486
G01 X19.35449Y45.53304
G01 X19.30772Y45.59609
G01 X19.26736Y45.66343
G01 X19.2338Y45.7344
G01 X19.20735Y45.80832
G01 X19.18827Y45.88448
G01 X19.17675Y45.96214
G01 X19.1729Y46.04055
G01 X19.17675Y46.11896
G01 X19.18827Y46.19662
G01 X19.20735Y46.27278
G01 X19.2338Y46.3467
G01 X19.26736Y46.41767
G01 X19.30772Y46.48501
G01 X19.35449Y46.54806
G01 X19.40721Y46.60624
G01 X19.46539Y46.65896
G01 X19.52844Y46.70573
G01 X19.59578Y46.74609
G01 X19.66675Y46.77965
G01 X19.74067Y46.8061
G01 X19.81683Y46.82518
G01 X19.89449Y46.8367
G01 X19.9729Y46.84055
G01 X20.05131Y46.8367
G01 X20.12897Y46.82518
G01 X20.17925Y46.81258
G01 X22.33151Y48.96484
G01 X22.36059Y48.9912
G01 X22.39212Y49.01459
G01 X22.42579Y49.03477
G01 X22.46128Y49.05155
G01 X22.49824Y49.06478
G01 X22.53631Y49.07431
G01 X22.57514Y49.08007
G01 X22.61435Y49.082
G01 X23.93278Y49.082
G01 X23.95942Y49.12646
G01 X24.00619Y49.18951
G01 X24.05891Y49.24769
G01 X24.11709Y49.30041
G01 X24.18014Y49.34718
G01 X24.24748Y49.38754
G01 X24.31845Y49.4211
G01 X24.39237Y49.44755
G01 X24.46853Y49.46663
G01 X24.46853Y49.46663
M5
G01 X44.11231Y71.50811
M3
G01 X44.05959Y71.56629
G01 X44.01282Y71.62934
G01 X43.97246Y71.69668
G01 X43.9389Y71.76765
G01 X43.91245Y71.84157
G01 X43.89337Y71.91773
G01 X43.88185Y71.99539
G01 X43.878Y72.0738
G01 X43.88185Y72.15221
G01 X43.89337Y72.22987
G01 X43.91245Y72.30603
G01 X43.9389Y72.37995
G01 X43.97246Y72.45092
G01 X44.01282Y72.51826
G01 X44.05959Y72.58131
G01 X44.11231Y72.63949
G01 X44.17049Y72.69221
G01 X44.23354Y72.73898
G01 X44.278Y72.76562
G01 X44.278Y74.40098
G01 X44.22354Y74.43362
G01 X44.16049Y74.48039
G01 X44.10231Y74.53311
G01 X44.04959Y74.59129
G01 X44.00282Y74.65434
G01 X43.96246Y74.72168
G01 X43.9289Y74.79265
G01 X43.90245Y74.86657
G01 X43.88337Y74.94273
G01 X43.87185Y75.02039
G01 X43.868Y75.0988
G01 X43.87185Y75.17721
G01 X43.88337Y75.25487
G01 X43.90245Y75.33103
G01 X43.9289Y75.40495
G01 X43.96246Y75.47592
G01 X44.00282Y75.54326
G01 X44.04959Y75.60631
G01 X44.10231Y75.66449
G01 X44.16049Y75.71721
G01 X44.22354Y75.76398
G01 X44.29088Y75.80434
G01 X44.36185Y75.8379
G01 X44.43577Y75.86435
G01 X44.51193Y75.88343
G01 X44.58959Y75.89495
G01 X44.668Y75.8988
G01 X44.74641Y75.89495
G01 X44.82407Y75.88343
G01 X44.90023Y75.86435
G01 X44.97415Y75.8379
G01 X45.04512Y75.80434
G01 X45.11246Y75.76398
G01 X45.17551Y75.71721
G01 X45.23369Y75.66449
G01 X45.28641Y75.60631
G01 X45.33318Y75.54326
G01 X45.37354Y75.47592
G01 X45.4071Y75.40495
G01 X45.43355Y75.33103
G01 X45.45263Y75.25487
G01 X45.46415Y75.17721
G01 X45.468Y75.0988
G01 X45.46415Y75.02039
G01 X45.45263Y74.94273
G01 X45.43355Y74.86657
G01 X45.4071Y74.79265
G01 X45.37354Y74.72168
G01 X45.33318Y74.65434
G01 X45.28641Y74.59129
G01 X45.23369Y74.53311
G01 X45.17551Y74.48039
G01 X45.11246Y74.43362
G01 X45.078Y74.41297
G01 X45.078Y72.76562
G01 X45.12246Y72.73898
G01 X45.18551Y72.69221
G01 X45.24369Y72.63949
G01 X45.29641Y72.58131
G01 X45.34318Y72.51826
G01 X45.38354Y72.45092
G01 X45.4171Y72.37995
G01 X45.44355Y72.30603
G01 X45.46263Y72.22987
G01 X45.47415Y72.15221
G01 X45.478Y72.0738
G01 X45.47415Y71.99539
G01 X45.46263Y71.91773
G01 X45.44355Y71.84157
G01 X45.4171Y71.76765
G01 X45.38354Y71.69668
G01 X45.34318Y71.62934
G01 X45.29641Y71.56629
G01 X45.24369Y71.50811
G01 X45.18551Y71.45539
G01 X45.12246Y71.40862
G01 X45.098Y71.39397
G01 X45.098Y68.5688
G01 X45.448Y68.5688
G01 X45.448Y67.0688
G01 X43.948Y67.0688
G01 X43.948Y68.5688
G01 X44.298Y68.5688
G01 X44.298Y71.36999
G01 X44.23354Y71.40862
G01 X44.17049Y71.45539
G01 X44.11231Y71.50811
G01 X44.11231Y71.50811
M5
G01 X47.69081Y64.66349
M3
G01 X47.65198Y64.65773
G01 X47.61277Y64.6558
G01 X41.32034Y64.6558
G01 X41.28113Y64.65773
G01 X41.2423Y64.66349
G01 X41.20423Y64.67302
G01 X41.16727Y64.68625
G01 X41.13178Y64.70303
G01 X41.09811Y64.72321
G01 X41.06658Y64.7466
G01 X41.0375Y64.77296
G01 X39.33516Y66.4753
G01 X39.3088Y66.50438
G01 X39.28541Y66.53591
G01 X39.26523Y66.56958
G01 X39.24845Y66.60507
G01 X39.23522Y66.64203
G01 X39.22569Y66.6801
G01 X39.21993Y66.71893
G01 X39.218Y66.75814
G01 X39.218Y67.1852
G01 X39.20132Y67.1952
G01 X39.14221Y67.23904
G01 X39.08767Y67.28847
G01 X39.03824Y67.34301
G01 X38.9944Y67.40212
G01 X38.95656Y67.46525
G01 X38.92509Y67.53179
G01 X38.90029Y67.60109
G01 X38.88241Y67.67248
G01 X38.87161Y67.74529
G01 X38.868Y67.8188
G01 X38.87161Y67.89231
G01 X38.88241Y67.96512
G01 X38.88714Y67.98398
G01 X37.68778Y69.18333
G01 X37.68441Y69.17879
G01 X37.63169Y69.12061
G01 X37.57351Y69.06789
G01 X37.51046Y69.02112
G01 X37.44312Y68.98076
G01 X37.37215Y68.9472
G01 X37.29823Y68.92075
G01 X37.22207Y68.90167
G01 X37.14441Y68.89015
G01 X37.066Y68.8863
G01 X36.98759Y68.89015
G01 X36.90993Y68.90167
G01 X36.83377Y68.92075
G01 X36.75985Y68.9472
G01 X36.68888Y68.98076
G01 X36.62154Y69.02112
G01 X36.55849Y69.06789
G01 X36.50031Y69.12061
G01 X36.44759Y69.17879
G01 X36.40082Y69.24184
G01 X36.36046Y69.30918
G01 X36.3269Y69.38015
G01 X36.30045Y69.45407
G01 X36.28137Y69.53023
G01 X36.26985Y69.60789
G01 X36.266Y69.6863
G01 X36.26985Y69.76471
G01 X36.28137Y69.84237
G01 X36.30045Y69.91853
G01 X36.3269Y69.99245
G01 X36.36046Y70.06342
G01 X36.40082Y70.13076
G01 X36.44759Y70.19381
G01 X36.50031Y70.25199
G01 X36.55849Y70.30471
G01 X36.62154Y70.35148
G01 X36.68888Y70.39184
G01 X36.75985Y70.4254
G01 X36.83377Y70.45185
G01 X36.90993Y70.47093
G01 X36.98759Y70.48245
G01 X37.066Y70.4863
G01 X37.14441Y70.48245
G01 X37.22207Y70.47093
G01 X37.29823Y70.45185
G01 X37.37215Y70.4254
G01 X37.44312Y70.39184
G01 X37.51046Y70.35148
G01 X37.57351Y70.30471
G01 X37.63169Y70.25199
G01 X37.68441Y70.19381
G01 X37.73118Y70.13076
G01 X37.75804Y70.08593
G01 X37.78971Y70.08437
G01 X37.82854Y70.07861
G01 X37.86661Y70.06908
G01 X37.90357Y70.05585
G01 X37.93906Y70.03907
G01 X37.97273Y70.01889
G01 X38.00426Y69.9955
G01 X38.03334Y69.96914
G01 X39.45282Y68.54966
G01 X39.47168Y68.55439
G01 X39.54449Y68.56519
G01 X39.618Y68.5688
G01 X39.69151Y68.56519
G01 X39.76432Y68.55439
G01 X39.83571Y68.53651
G01 X39.90501Y68.51171
G01 X39.97155Y68.48024
G01 X40.03468Y68.4424
G01 X40.09379Y68.39856
G01 X40.14833Y68.34913
G01 X40.19776Y68.29459
G01 X40.2416Y68.23548
G01 X40.27944Y68.17235
G01 X40.31091Y68.10581
G01 X40.33571Y68.03651
G01 X40.35359Y67.96512
G01 X40.36439Y67.89231
G01 X40.368Y67.8188
G01 X40.36439Y67.74529
G01 X40.35359Y67.67248
G01 X40.33571Y67.60109
G01 X40.31091Y67.53179
G01 X40.27944Y67.46525
G01 X40.2416Y67.40212
G01 X40.19776Y67.34301
G01 X40.14833Y67.28847
G01 X40.09379Y67.23904
G01 X40.03468Y67.1952
G01 X40.018Y67.1852
G01 X40.018Y66.92383
G01 X41.48603Y65.4558
G01 X47.44708Y65.4558
G01 X47.4784Y65.48712
G01 X47.4784Y65.76098
G01 X47.43394Y65.78762
G01 X47.37089Y65.83439
G01 X47.31271Y65.88711
G01 X47.25999Y65.94529
G01 X47.21322Y66.00834
G01 X47.17286Y66.07568
G01 X47.1393Y66.14665
G01 X47.11285Y66.22057
G01 X47.09377Y66.29673
G01 X47.08225Y66.37439
G01 X47.0784Y66.4528
G01 X47.08225Y66.53121
G01 X47.09377Y66.60887
G01 X47.11285Y66.68503
G01 X47.1393Y66.75895
G01 X47.17286Y66.82992
G01 X47.21322Y66.89726
G01 X47.25999Y66.96031
G01 X47.31271Y67.01849
G01 X47.37089Y67.07121
G01 X47.43394Y67.11798
G01 X47.50128Y67.15834
G01 X47.57225Y67.1919
G01 X47.64617Y67.21835
G01 X47.72233Y67.23743
G01 X47.79999Y67.24895
G01 X47.8784Y67.2528
G01 X47.95681Y67.24895
G01 X48.03447Y67.23743
G01 X48.11063Y67.21835
G01 X48.18455Y67.1919
G01 X48.25552Y67.15834
G01 X48.32286Y67.11798
G01 X48.38591Y67.07121
G01 X48.44409Y67.01849
G01 X48.49681Y66.96031
G01 X48.54358Y66.89726
G01 X48.58394Y66.82992
G01 X48.6175Y66.75895
G01 X48.64395Y66.68503
G01 X48.66303Y66.60887
G01 X48.67455Y66.53121
G01 X48.6784Y66.4528
G01 X48.67455Y66.37439
G01 X48.66303Y66.29673
G01 X48.64395Y66.22057
G01 X48.6175Y66.14665
G01 X48.58394Y66.07568
G01 X48.54358Y66.00834
G01 X48.49681Y65.94529
G01 X48.44409Y65.88711
G01 X48.38591Y65.83439
G01 X48.32286Y65.78762
G01 X48.2784Y65.76098
G01 X48.2784Y65.32143
G01 X48.27647Y65.28222
G01 X48.27071Y65.24339
G01 X48.26118Y65.20532
G01 X48.24795Y65.16836
G01 X48.23117Y65.13287
G01 X48.21099Y65.0992
G01 X48.1876Y65.06767
G01 X48.16124Y65.03859
G01 X47.89561Y64.77296
G01 X47.86653Y64.7466
G01 X47.835Y64.72321
G01 X47.80133Y64.70303
G01 X47.76584Y64.68625
G01 X47.72888Y64.67302
G01 X47.69081Y64.66349
G01 X47.69081Y64.66349
M5
G01 X24.87595Y74.11879
M3
G01 X24.86443Y74.04113
G01 X24.84535Y73.96497
G01 X24.8189Y73.89105
G01 X24.78534Y73.82008
G01 X24.74498Y73.75274
G01 X24.69821Y73.68969
G01 X24.64549Y73.63151
G01 X24.58731Y73.57879
G01 X24.52426Y73.53202
G01 X24.4798Y73.50538
G01 X24.4798Y70.7022
G01 X24.8898Y70.7022
G01 X24.8898Y69.2022
G01 X23.3898Y69.2022
G01 X23.3898Y70.7022
G01 X23.6798Y70.7022
G01 X23.6798Y73.50538
G01 X23.63534Y73.53202
G01 X23.57229Y73.57879
G01 X23.51411Y73.63151
G01 X23.46139Y73.68969
G01 X23.41462Y73.75274
G01 X23.37426Y73.82008
G01 X23.3407Y73.89105
G01 X23.31425Y73.96497
G01 X23.29517Y74.04113
G01 X23.28365Y74.11879
G01 X23.2798Y74.1972
G01 X23.28365Y74.27561
G01 X23.29517Y74.35327
G01 X23.31425Y74.42943
G01 X23.3407Y74.50335
G01 X23.37426Y74.57432
G01 X23.41462Y74.64166
G01 X23.46139Y74.70471
G01 X23.51411Y74.76289
G01 X23.57229Y74.81561
G01 X23.63534Y74.86238
G01 X23.6848Y74.89202
G01 X23.6848Y76.50538
G01 X23.64034Y76.53202
G01 X23.57729Y76.57879
G01 X23.51911Y76.63151
G01 X23.46639Y76.68969
G01 X23.41962Y76.75274
G01 X23.37926Y76.82008
G01 X23.3457Y76.89105
G01 X23.31925Y76.96497
G01 X23.30017Y77.04113
G01 X23.28865Y77.11879
G01 X23.2848Y77.1972
G01 X23.28865Y77.27561
G01 X23.30017Y77.35327
G01 X23.31925Y77.42943
G01 X23.3457Y77.50335
G01 X23.37926Y77.57432
G01 X23.41962Y77.64166
G01 X23.46639Y77.70471
G01 X23.51911Y77.76289
G01 X23.57729Y77.81561
G01 X23.64034Y77.86238
G01 X23.70768Y77.90274
G01 X23.77865Y77.9363
G01 X23.85257Y77.96275
G01 X23.92873Y77.98183
G01 X24.00639Y77.99335
G01 X24.0848Y77.9972
G01 X24.16321Y77.99335
G01 X24.24087Y77.98183
G01 X24.31703Y77.96275
G01 X24.39095Y77.9363
G01 X24.46192Y77.90274
G01 X24.52926Y77.86238
G01 X24.59231Y77.81561
G01 X24.65049Y77.76289
G01 X24.70321Y77.70471
G01 X24.74998Y77.64166
G01 X24.79034Y77.57432
G01 X24.8239Y77.50335
G01 X24.85035Y77.42943
G01 X24.86943Y77.35327
G01 X24.88095Y77.27561
G01 X24.8848Y77.1972
G01 X24.88095Y77.11879
G01 X24.86943Y77.04113
G01 X24.85035Y76.96497
G01 X24.8239Y76.89105
G01 X24.79034Y76.82008
G01 X24.74998Y76.75274
G01 X24.70321Y76.68969
G01 X24.65049Y76.63151
G01 X24.59231Y76.57879
G01 X24.52926Y76.53202
G01 X24.4848Y76.50538
G01 X24.4848Y74.88602
G01 X24.52426Y74.86238
G01 X24.58731Y74.81561
G01 X24.64549Y74.76289
G01 X24.69821Y74.70471
G01 X24.74498Y74.64166
G01 X24.78534Y74.57432
G01 X24.8189Y74.50335
G01 X24.84535Y74.42943
G01 X24.86443Y74.35327
G01 X24.87595Y74.27561
G01 X24.8798Y74.1972
G01 X24.87595Y74.11879
G01 X24.87595Y74.11879
M5
G01 X23.44257Y67.54775
M3
G01 X23.51873Y67.56683
G01 X23.59639Y67.57835
G01 X23.6748Y67.5822
G01 X23.75321Y67.57835
G01 X23.83087Y67.56683
G01 X23.90703Y67.54775
G01 X23.98095Y67.5213
G01 X24.05192Y67.48774
G01 X24.11926Y67.44738
G01 X24.18231Y67.40061
G01 X24.24049Y67.34789
G01 X24.29321Y67.28971
G01 X24.33998Y67.22666
G01 X24.38034Y67.15932
G01 X24.4139Y67.08835
G01 X24.44035Y67.01443
G01 X24.45943Y66.93827
G01 X24.47095Y66.86061
G01 X24.4748Y66.7822
G01 X24.47095Y66.70379
G01 X24.45943Y66.62613
G01 X24.44035Y66.54997
G01 X24.4139Y66.47605
G01 X24.38034Y66.40508
G01 X24.33998Y66.33774
G01 X24.29321Y66.27469
G01 X24.24049Y66.21651
G01 X24.18231Y66.16379
G01 X24.11926Y66.11702
G01 X24.05192Y66.07666
G01 X23.98095Y66.0431
G01 X23.90703Y66.01665
G01 X23.83087Y65.99757
G01 X23.75321Y65.98605
G01 X23.6748Y65.9822
G01 X23.59639Y65.98605
G01 X23.51873Y65.99757
G01 X23.44257Y66.01665
G01 X23.36865Y66.0431
G01 X23.29768Y66.07666
G01 X23.23034Y66.11702
G01 X23.16729Y66.16379
G01 X23.10911Y66.21651
G01 X23.05639Y66.27469
G01 X23.00962Y66.33774
G01 X22.98298Y66.3822
G01 X22.2298Y66.3822
G01 X22.19059Y66.38413
G01 X22.15176Y66.38989
G01 X22.11369Y66.39942
G01 X22.07673Y66.41265
G01 X22.04124Y66.42943
G01 X22.00757Y66.44961
G01 X21.97604Y66.473
G01 X21.94696Y66.49936
G01 X19.22498Y69.22134
G01 X19.20612Y69.21661
G01 X19.13331Y69.20581
G01 X19.0598Y69.2022
G01 X18.98629Y69.20581
G01 X18.91348Y69.21661
G01 X18.84209Y69.23449
G01 X18.77279Y69.25929
G01 X18.70625Y69.29076
G01 X18.64312Y69.3286
G01 X18.58401Y69.37244
G01 X18.52947Y69.42187
G01 X18.48004Y69.47641
G01 X18.4362Y69.53552
G01 X18.39836Y69.59865
G01 X18.36689Y69.66519
G01 X18.34209Y69.73449
G01 X18.32421Y69.80588
G01 X18.31341Y69.87869
G01 X18.3098Y69.9522
G01 X18.31341Y70.02571
G01 X18.32421Y70.09852
G01 X18.32894Y70.11738
G01 X17.24911Y71.1972
G01 X17.14162Y71.1972
G01 X17.11498Y71.15274
G01 X17.06821Y71.08969
G01 X17.01549Y71.03151
G01 X16.95731Y70.97879
G01 X16.89426Y70.93202
G01 X16.82692Y70.89166
G01 X16.75595Y70.8581
G01 X16.68203Y70.83165
G01 X16.60587Y70.81257
G01 X16.52821Y70.80105
G01 X16.4498Y70.7972
G01 X16.37139Y70.80105
G01 X16.29373Y70.81257
G01 X16.21757Y70.83165
G01 X16.14365Y70.8581
G01 X16.07268Y70.89166
G01 X16.00534Y70.93202
G01 X15.94229Y70.97879
G01 X15.88411Y71.03151
G01 X15.83139Y71.08969
G01 X15.78462Y71.15274
G01 X15.74426Y71.22008
G01 X15.7107Y71.29105
G01 X15.68425Y71.36497
G01 X15.66517Y71.44113
G01 X15.65365Y71.51879
G01 X15.6498Y71.5972
G01 X15.65365Y71.67561
G01 X15.66517Y71.75327
G01 X15.68425Y71.82943
G01 X15.7107Y71.90335
G01 X15.74426Y71.97432
G01 X15.78462Y72.04166
G01 X15.83139Y72.10471
G01 X15.88411Y72.16289
G01 X15.94229Y72.21561
G01 X16.00534Y72.26238
G01 X16.07268Y72.30274
G01 X16.14365Y72.3363
G01 X16.21757Y72.36275
G01 X16.29373Y72.38183
G01 X16.37139Y72.39335
G01 X16.4498Y72.3972
G01 X16.52821Y72.39335
G01 X16.60587Y72.38183
G01 X16.68203Y72.36275
G01 X16.75595Y72.3363
G01 X16.82692Y72.30274
G01 X16.89426Y72.26238
G01 X16.95731Y72.21561
G01 X17.01549Y72.16289
G01 X17.06821Y72.10471
G01 X17.11498Y72.04166
G01 X17.14162Y71.9972
G01 X17.4148Y71.9972
G01 X17.45401Y71.99527
G01 X17.49284Y71.98951
G01 X17.53091Y71.97998
G01 X17.56787Y71.96675
G01 X17.60336Y71.94997
G01 X17.63703Y71.92979
G01 X17.66856Y71.9064
G01 X17.69764Y71.88004
G01 X18.89462Y70.68306
G01 X18.91348Y70.68779
G01 X18.98629Y70.69859
G01 X19.0598Y70.7022
G01 X19.13331Y70.69859
G01 X19.20612Y70.68779
G01 X19.27751Y70.66991
G01 X19.34681Y70.64511
G01 X19.41335Y70.61364
G01 X19.47648Y70.5758
G01 X19.53559Y70.53196
G01 X19.59013Y70.48253
G01 X19.63956Y70.42799
G01 X19.6834Y70.36888
G01 X19.72124Y70.30575
G01 X19.75271Y70.23921
G01 X19.77751Y70.16991
G01 X19.79539Y70.09852
G01 X19.80619Y70.02571
G01 X19.8098Y69.9522
G01 X19.80619Y69.87869
G01 X19.79539Y69.80588
G01 X19.79066Y69.78702
G01 X22.39549Y67.1822
G01 X22.98298Y67.1822
G01 X23.00962Y67.22666
G01 X23.05639Y67.28971
G01 X23.10911Y67.34789
G01 X23.16729Y67.40061
G01 X23.23034Y67.44738
G01 X23.29768Y67.48774
G01 X23.36865Y67.5213
G01 X23.44257Y67.54775
G01 X23.44257Y67.54775
M5
G01 X20.62624Y66.84075
M3
G01 X20.65771Y66.77421
G01 X20.68251Y66.70491
G01 X20.70039Y66.63352
G01 X20.71119Y66.56071
G01 X20.7148Y66.4872
G01 X20.71119Y66.41369
G01 X20.70039Y66.34088
G01 X20.68251Y66.26949
G01 X20.65771Y66.20019
G01 X20.62624Y66.13365
G01 X20.5884Y66.07052
G01 X20.54456Y66.01141
G01 X20.49513Y65.95687
G01 X20.44059Y65.90744
G01 X20.38148Y65.8636
G01 X20.31835Y65.82576
G01 X20.25181Y65.79429
G01 X20.18251Y65.76949
G01 X20.11112Y65.75161
G01 X20.03831Y65.74081
G01 X19.9648Y65.7372
G01 X19.89129Y65.74081
G01 X19.81848Y65.75161
G01 X19.79962Y65.75634
G01 X18.8148Y64.77151
G01 X18.8148Y63.2722
G01 X18.81287Y63.23299
G01 X18.80711Y63.19416
G01 X18.79758Y63.15609
G01 X18.78435Y63.11913
G01 X18.76757Y63.08364
G01 X18.74739Y63.04997
G01 X18.724Y63.01844
G01 X18.69764Y62.98936
G01 X17.23683Y61.52855
G01 X17.24943Y61.47827
G01 X17.26095Y61.40061
G01 X17.2648Y61.3222
G01 X17.26095Y61.24379
G01 X17.24943Y61.16613
G01 X17.23683Y61.11585
G01 X22.19424Y56.15844
G01 X22.2206Y56.12936
G01 X22.24399Y56.09783
G01 X22.26417Y56.06416
G01 X22.28095Y56.02867
G01 X22.29418Y55.99171
G01 X22.30371Y55.95364
G01 X22.30947Y55.91481
G01 X22.3114Y55.8756
G01 X22.3114Y54.942
G01 X22.32808Y54.932
G01 X22.38719Y54.88816
G01 X22.44173Y54.83873
G01 X22.49116Y54.78419
G01 X22.535Y54.72508
G01 X22.57284Y54.66195
G01 X22.60431Y54.59541
G01 X22.62911Y54.52611
G01 X22.64699Y54.45472
G01 X22.65779Y54.38191
G01 X22.6614Y54.3084
G01 X22.65779Y54.23489
G01 X22.64699Y54.16208
G01 X22.62911Y54.09069
G01 X22.60431Y54.02139
G01 X22.57284Y53.95485
G01 X22.535Y53.89172
G01 X22.49116Y53.83261
G01 X22.44173Y53.77807
G01 X22.38719Y53.72864
G01 X22.32808Y53.6848
G01 X22.26495Y53.64696
G01 X22.19841Y53.61549
G01 X22.12911Y53.59069
G01 X22.05772Y53.57281
G01 X21.98491Y53.56201
G01 X21.9114Y53.5584
G01 X21.83789Y53.56201
G01 X21.76508Y53.57281
G01 X21.69369Y53.59069
G01 X21.62439Y53.61549
G01 X21.55785Y53.64696
G01 X21.49472Y53.6848
G01 X21.43561Y53.72864
G01 X21.38107Y53.77807
G01 X21.33164Y53.83261
G01 X21.2878Y53.89172
G01 X21.24996Y53.95485
G01 X21.21849Y54.02139
G01 X21.19369Y54.09069
G01 X21.17581Y54.16208
G01 X21.16501Y54.23489
G01 X21.1614Y54.3084
G01 X21.16501Y54.38191
G01 X21.17581Y54.45472
G01 X21.19369Y54.52611
G01 X21.21849Y54.59541
G01 X21.24996Y54.66195
G01 X21.2878Y54.72508
G01 X21.33164Y54.78419
G01 X21.38107Y54.83873
G01 X21.43561Y54.88816
G01 X21.49472Y54.932
G01 X21.5114Y54.942
G01 X21.5114Y55.70991
G01 X16.67115Y60.55017
G01 X16.62087Y60.53757
G01 X16.54321Y60.52605
G01 X16.4648Y60.5222
G01 X16.38639Y60.52605
G01 X16.30873Y60.53757
G01 X16.23257Y60.55665
G01 X16.15865Y60.5831
G01 X16.08768Y60.61666
G01 X16.02034Y60.65702
G01 X15.95729Y60.70379
G01 X15.89911Y60.75651
G01 X15.84639Y60.81469
G01 X15.79962Y60.87774
G01 X15.75926Y60.94508
G01 X15.7257Y61.01605
G01 X15.69925Y61.08997
G01 X15.68017Y61.16613
G01 X15.66865Y61.24379
G01 X15.6648Y61.3222
G01 X15.66865Y61.40061
G01 X15.68017Y61.47827
G01 X15.69925Y61.55443
G01 X15.7257Y61.62835
G01 X15.75926Y61.69932
G01 X15.79962Y61.76666
G01 X15.84639Y61.82971
G01 X15.89911Y61.88789
G01 X15.95729Y61.94061
G01 X16.02034Y61.98738
G01 X16.08768Y62.02774
G01 X16.15865Y62.0613
G01 X16.23257Y62.08775
G01 X16.30873Y62.10683
G01 X16.38639Y62.11835
G01 X16.4648Y62.1222
G01 X16.54321Y62.11835
G01 X16.62087Y62.10683
G01 X16.67115Y62.09423
G01 X18.0148Y63.43789
G01 X18.0148Y64.9372
G01 X18.01673Y64.97641
G01 X18.02249Y65.01524
G01 X18.03202Y65.05331
G01 X18.04525Y65.09027
G01 X18.06203Y65.12576
G01 X18.08221Y65.15943
G01 X18.1056Y65.19096
G01 X18.13196Y65.22004
G01 X19.23394Y66.32202
G01 X19.22921Y66.34088
G01 X19.21841Y66.41369
G01 X19.2148Y66.4872
G01 X19.21841Y66.56071
G01 X19.22921Y66.63352
G01 X19.24709Y66.70491
G01 X19.27189Y66.77421
G01 X19.30336Y66.84075
G01 X19.3412Y66.90388
G01 X19.38504Y66.96299
G01 X19.43447Y67.01753
G01 X19.48901Y67.06696
G01 X19.54812Y67.1108
G01 X19.61125Y67.14864
G01 X19.67779Y67.18011
G01 X19.74709Y67.20491
G01 X19.81848Y67.22279
G01 X19.89129Y67.23359
G01 X19.9648Y67.2372
G01 X20.03831Y67.23359
G01 X20.11112Y67.22279
G01 X20.18251Y67.20491
G01 X20.25181Y67.18011
G01 X20.31835Y67.14864
G01 X20.38148Y67.1108
G01 X20.44059Y67.06696
G01 X20.49513Y67.01753
G01 X20.54456Y66.96299
G01 X20.5884Y66.90388
G01 X20.62624Y66.84075
G01 X20.62624Y66.84075
M5
G01 X32.25269Y4.74731
M3
G01 X31.91821Y4.44415
G01 X31.55562Y4.17524
G01 X31.16842Y3.94316
G01 X30.76034Y3.75015
G01 X30.33531Y3.59807
G01 X29.89742Y3.48839
G01 X29.45088Y3.42215
G01 X29.0Y3.4
G01 X28.54912Y3.42215
G01 X28.10258Y3.48839
G01 X27.66469Y3.59807
G01 X27.23966Y3.75015
G01 X26.83158Y3.94316
G01 X26.44438Y4.17524
G01 X26.08179Y4.44415
G01 X25.74731Y4.74731
G01 X25.44415Y5.08179
G01 X25.17524Y5.44438
G01 X24.94316Y5.83158
G01 X24.75015Y6.23966
G01 X24.59807Y6.66469
G01 X24.48839Y7.10258
G01 X24.42215Y7.54912
G01 X24.4Y8.0
G01 X24.42215Y8.45088
G01 X24.48839Y8.89742
G01 X24.59807Y9.33531
G01 X24.75015Y9.76034
G01 X24.94316Y10.16842
G01 X25.17524Y10.55562
G01 X25.44415Y10.91821
G01 X25.74731Y11.25269
G01 X26.08179Y11.55585
G01 X26.44438Y11.82476
G01 X26.83158Y12.05684
G01 X27.23966Y12.24985
G01 X27.66469Y12.40193
G01 X28.10258Y12.51161
G01 X28.54912Y12.57785
G01 X29.0Y12.6
G01 X29.45088Y12.57785
G01 X29.89742Y12.51161
G01 X30.33531Y12.40193
G01 X30.76034Y12.24985
G01 X31.16842Y12.05684
G01 X31.55562Y11.82476
G01 X31.91821Y11.55585
G01 X32.25269Y11.25269
G01 X32.55585Y10.91821
G01 X32.82476Y10.55562
G01 X33.05684Y10.16842
G01 X33.24985Y9.76034
G01 X33.40193Y9.33531
G01 X33.51161Y8.89742
G01 X33.57785Y8.45088
G01 X33.6Y8.0
G01 X33.57785Y7.54912
G01 X33.51161Y7.10258
G01 X33.40193Y6.66469
G01 X33.24985Y6.23966
G01 X33.05684Y5.83158
G01 X32.82476Y5.44438
G01 X32.55585Y5.08179
G01 X32.25269Y4.74731
G01 X32.25269Y4.74731
M5
G01 X34.39488Y56.43954
M3
G01 X34.46585Y56.4731
G01 X34.53977Y56.49955
G01 X34.61593Y56.51863
G01 X34.69359Y56.53015
G01 X34.772Y56.534
G01 X34.85041Y56.53015
G01 X34.92807Y56.51863
G01 X35.00423Y56.49955
G01 X35.07815Y56.4731
G01 X35.14912Y56.43954
G01 X35.21646Y56.39918
G01 X35.27951Y56.35241
G01 X35.33769Y56.29969
G01 X35.39041Y56.24151
G01 X35.43718Y56.17846
G01 X35.47754Y56.11112
G01 X35.5111Y56.04015
G01 X35.53755Y55.96623
G01 X35.55663Y55.89007
G01 X35.56815Y55.81241
G01 X35.57088Y55.75681
G01 X37.17262Y54.15506
G01 X37.19148Y54.15979
G01 X37.26429Y54.17059
G01 X37.3378Y54.1742
G01 X37.41131Y54.17059
G01 X37.48412Y54.15979
G01 X37.55551Y54.14191
G01 X37.62481Y54.11711
G01 X37.69135Y54.08564
G01 X37.75448Y54.0478
G01 X37.81359Y54.00396
G01 X37.86813Y53.95453
G01 X37.91756Y53.89999
G01 X37.9614Y53.84088
G01 X37.99924Y53.77775
G01 X38.03071Y53.71121
G01 X38.05551Y53.64191
G01 X38.07339Y53.57052
G01 X38.08419Y53.49771
G01 X38.0878Y53.4242
G01 X38.08419Y53.35069
G01 X38.07339Y53.27788
G01 X38.05551Y53.20649
G01 X38.03071Y53.13719
G01 X37.99924Y53.07065
G01 X37.9614Y53.00752
G01 X37.91756Y52.94841
G01 X37.86813Y52.89387
G01 X37.81359Y52.84444
G01 X37.75448Y52.8006
G01 X37.69135Y52.76276
G01 X37.6828Y52.75872
G01 X37.6828Y46.2328
G01 X37.69948Y46.2228
G01 X37.75859Y46.17896
G01 X37.81313Y46.12953
G01 X37.86256Y46.07499
G01 X37.9064Y46.01588
G01 X37.94424Y45.95275
G01 X37.97571Y45.88621
G01 X38.00051Y45.81691
G01 X38.01839Y45.74552
G01 X38.02919Y45.67271
G01 X38.0328Y45.5992
G01 X38.02919Y45.52569
G01 X38.01839Y45.45288
G01 X38.00051Y45.38149
G01 X37.97571Y45.31219
G01 X37.94424Y45.24565
G01 X37.9064Y45.18252
G01 X37.86256Y45.12341
G01 X37.81313Y45.06887
G01 X37.75859Y45.01944
G01 X37.69948Y44.9756
G01 X37.6828Y44.9656
G01 X37.6828Y43.55489
G01 X39.65762Y41.58006
G01 X39.67648Y41.58479
G01 X39.74929Y41.59559
G01 X39.8228Y41.5992
G01 X39.89631Y41.59559
G01 X39.96912Y41.58479
G01 X40.04051Y41.56691
G01 X40.10981Y41.54211
G01 X40.17635Y41.51064
G01 X40.23948Y41.4728
G01 X40.29859Y41.42896
G01 X40.35313Y41.37953
G01 X40.40256Y41.32499
G01 X40.4464Y41.26588
G01 X40.48424Y41.20275
G01 X40.51571Y41.13621
G01 X40.54051Y41.06691
G01 X40.55839Y40.99552
G01 X40.56919Y40.92271
G01 X40.5728Y40.8492
G01 X40.56919Y40.77569
G01 X40.55839Y40.70288
G01 X40.54051Y40.63149
G01 X40.51571Y40.56219
G01 X40.48424Y40.49565
G01 X40.4464Y40.43252
G01 X40.40256Y40.37341
G01 X40.35313Y40.31887
G01 X40.29859Y40.26944
G01 X40.23948Y40.2256
G01 X40.17635Y40.18776
G01 X40.10981Y40.15629
G01 X40.04051Y40.13149
G01 X39.96912Y40.11361
G01 X39.89631Y40.10281
G01 X39.8228Y40.0992
G01 X39.74929Y40.10281
G01 X39.67648Y40.11361
G01 X39.60509Y40.13149
G01 X39.53579Y40.15629
G01 X39.46925Y40.18776
G01 X39.40612Y40.2256
G01 X39.34701Y40.26944
G01 X39.29247Y40.31887
G01 X39.24304Y40.37341
G01 X39.1992Y40.43252
G01 X39.16136Y40.49565
G01 X39.12989Y40.56219
G01 X39.10509Y40.63149
G01 X39.08721Y40.70288
G01 X39.07641Y40.77569
G01 X39.0728Y40.8492
G01 X39.07641Y40.92271
G01 X39.08721Y40.99552
G01 X39.09194Y41.01438
G01 X36.99996Y43.10636
G01 X36.9736Y43.13544
G01 X36.95021Y43.16697
G01 X36.93003Y43.20064
G01 X36.91325Y43.23613
G01 X36.90002Y43.27309
G01 X36.89049Y43.31116
G01 X36.88473Y43.34999
G01 X36.8828Y43.3892
G01 X36.8828Y44.9656
G01 X36.86612Y44.9756
G01 X36.80701Y45.01944
G01 X36.75247Y45.06887
G01 X36.70304Y45.12341
G01 X36.6592Y45.18252
G01 X36.62136Y45.24565
G01 X36.58989Y45.31219
G01 X36.56509Y45.38149
G01 X36.54721Y45.45288
G01 X36.53641Y45.52569
G01 X36.5328Y45.5992
G01 X36.53641Y45.67271
G01 X36.54721Y45.74552
G01 X36.56509Y45.81691
G01 X36.58989Y45.88621
G01 X36.62136Y45.95275
G01 X36.6592Y46.01588
G01 X36.70304Y46.07499
G01 X36.75247Y46.12953
G01 X36.80701Y46.17896
G01 X36.86612Y46.2228
G01 X36.8828Y46.2328
G01 X36.8828Y52.82902
G01 X36.86201Y52.84444
G01 X36.80747Y52.89387
G01 X36.75804Y52.94841
G01 X36.7142Y53.00752
G01 X36.67636Y53.07065
G01 X36.64489Y53.13719
G01 X36.62009Y53.20649
G01 X36.60221Y53.27788
G01 X36.59141Y53.35069
G01 X36.5878Y53.4242
G01 X36.59141Y53.49771
G01 X36.60221Y53.57052
G01 X36.60694Y53.58938
G01 X35.16083Y55.03548
G01 X35.14912Y55.02846
G01 X35.07815Y54.9949
G01 X35.00423Y54.96845
G01 X34.92807Y54.94937
G01 X34.85041Y54.93785
G01 X34.772Y54.934
G01 X34.69359Y54.93785
G01 X34.61593Y54.94937
G01 X34.53977Y54.96845
G01 X34.46585Y54.9949
G01 X34.39488Y55.02846
G01 X34.32754Y55.06882
G01 X34.26449Y55.11559
G01 X34.20631Y55.16831
G01 X34.15359Y55.22649
G01 X34.10682Y55.28954
G01 X34.06646Y55.35688
G01 X34.0329Y55.42785
G01 X34.00645Y55.50177
G01 X33.98737Y55.57793
G01 X33.97585Y55.65559
G01 X33.972Y55.734
G01 X33.97585Y55.81241
G01 X33.98737Y55.89007
G01 X34.00645Y55.96623
G01 X34.0329Y56.04015
G01 X34.06646Y56.11112
G01 X34.10682Y56.17846
G01 X34.15359Y56.24151
G01 X34.20631Y56.29969
G01 X34.26449Y56.35241
G01 X34.32754Y56.39918
G01 X34.39488Y56.43954
G01 X34.39488Y56.43954
M5
G01 X34.66779Y45.17285
M3
G01 X34.59013Y45.18437
G01 X34.53985Y45.19697
G01 X33.5462Y44.20331
G01 X33.5462Y37.1282
G01 X35.70511Y37.1282
G01 X36.22296Y37.64604
G01 X36.25204Y37.6724
G01 X36.28357Y37.69579
G01 X36.31724Y37.71597
G01 X36.35273Y37.73275
G01 X36.38969Y37.74598
G01 X36.42776Y37.75551
G01 X36.46659Y37.76127
G01 X36.5058Y37.7632
G01 X37.46498Y37.7632
G01 X37.49162Y37.80766
G01 X37.53839Y37.87071
G01 X37.59111Y37.92889
G01 X37.64929Y37.98161
G01 X37.71234Y38.02838
G01 X37.77968Y38.06874
G01 X37.85065Y38.1023
G01 X37.92457Y38.12875
G01 X38.00073Y38.14783
G01 X38.07839Y38.15935
G01 X38.1568Y38.1632
G01 X38.23521Y38.15935
G01 X38.31287Y38.14783
G01 X38.38903Y38.12875
G01 X38.46295Y38.1023
G01 X38.53392Y38.06874
G01 X38.60126Y38.02838
G01 X38.66431Y37.98161
G01 X38.72249Y37.92889
G01 X38.77521Y37.87071
G01 X38.82198Y37.80766
G01 X38.86234Y37.74032
G01 X38.8959Y37.66935
G01 X38.92235Y37.59543
G01 X38.94143Y37.51927
G01 X38.95295Y37.44161
G01 X38.9568Y37.3632
G01 X38.95295Y37.28479
G01 X38.94143Y37.20713
G01 X38.92235Y37.13097
G01 X38.8959Y37.05705
G01 X38.86234Y36.98608
G01 X38.82198Y36.91874
G01 X38.77521Y36.85569
G01 X38.72249Y36.79751
G01 X38.66431Y36.74479
G01 X38.60126Y36.69802
G01 X38.53392Y36.65766
G01 X38.46295Y36.6241
G01 X38.38903Y36.59765
G01 X38.31287Y36.57857
G01 X38.23521Y36.56705
G01 X38.1568Y36.5632
G01 X38.07839Y36.56705
G01 X38.00073Y36.57857
G01 X37.92457Y36.59765
G01 X37.85065Y36.6241
G01 X37.77968Y36.65766
G01 X37.71234Y36.69802
G01 X37.64929Y36.74479
G01 X37.59111Y36.79751
G01 X37.53839Y36.85569
G01 X37.49162Y36.91874
G01 X37.46498Y36.9632
G01 X36.67149Y36.9632
G01 X36.15364Y36.44536
G01 X36.12456Y36.419
G01 X36.09303Y36.39561
G01 X36.05936Y36.37543
G01 X36.02387Y36.35865
G01 X35.98691Y36.34542
G01 X35.94884Y36.33589
G01 X35.91001Y36.33013
G01 X35.8708Y36.3282
G01 X33.49649Y36.3282
G01 X33.42904Y36.26076
G01 X33.09294Y35.92466
G01 X32.3908Y35.22251
G01 X32.3908Y32.5882
G01 X29.1908Y32.5882
G01 X29.1908Y35.7882
G01 X31.82511Y35.7882
G01 X32.52726Y36.49034
G01 X32.7462Y36.70929
G01 X32.7462Y44.369
G01 X32.74813Y44.40821
G01 X32.75389Y44.44704
G01 X32.76342Y44.48511
G01 X32.77665Y44.52207
G01 X32.79343Y44.55756
G01 X32.81361Y44.59123
G01 X32.837Y44.62276
G01 X32.86336Y44.65184
G01 X33.97417Y45.76265
G01 X33.96157Y45.81293
G01 X33.95005Y45.89059
G01 X33.9462Y45.969
G01 X33.95005Y46.04741
G01 X33.96157Y46.12507
G01 X33.98065Y46.20123
G01 X34.0071Y46.27515
G01 X34.04066Y46.34612
G01 X34.08102Y46.41346
G01 X34.12779Y46.47651
G01 X34.18051Y46.53469
G01 X34.23869Y46.58741
G01 X34.30174Y46.63418
G01 X34.3462Y46.66082
G01 X34.3462Y47.43764
G01 X34.32754Y47.44882
G01 X34.26449Y47.49559
G01 X34.20631Y47.54831
G01 X34.15359Y47.60649
G01 X34.10682Y47.66954
G01 X34.06646Y47.73688
G01 X34.0329Y47.80785
G01 X34.00645Y47.88177
G01 X33.98737Y47.95793
G01 X33.97585Y48.03559
G01 X33.972Y48.114
G01 X33.97585Y48.19241
G01 X33.98737Y48.27007
G01 X34.00645Y48.34623
G01 X34.0329Y48.42015
G01 X34.06646Y48.49112
G01 X34.10682Y48.55846
G01 X34.15359Y48.62151
G01 X34.20631Y48.67969
G01 X34.26449Y48.73241
G01 X34.32754Y48.77918
G01 X34.39488Y48.81954
G01 X34.46585Y48.8531
G01 X34.53977Y48.87955
G01 X34.61593Y48.89863
G01 X34.69359Y48.91015
G01 X34.772Y48.914
G01 X34.85041Y48.91015
G01 X34.92807Y48.89863
G01 X35.00423Y48.87955
G01 X35.07815Y48.8531
G01 X35.14912Y48.81954
G01 X35.21646Y48.77918
G01 X35.27951Y48.73241
G01 X35.33769Y48.67969
G01 X35.39041Y48.62151
G01 X35.43718Y48.55846
G01 X35.47754Y48.49112
G01 X35.5111Y48.42015
G01 X35.53755Y48.34623
G01 X35.55663Y48.27007
G01 X35.56815Y48.19241
G01 X35.572Y48.114
G01 X35.56815Y48.03559
G01 X35.55663Y47.95793
G01 X35.53755Y47.88177
G01 X35.5111Y47.80785
G01 X35.47754Y47.73688
G01 X35.43718Y47.66954
G01 X35.39041Y47.60649
G01 X35.33769Y47.54831
G01 X35.27951Y47.49559
G01 X35.21646Y47.44882
G01 X35.14912Y47.40846
G01 X35.1462Y47.40708
G01 X35.1462Y46.66082
G01 X35.19066Y46.63418
G01 X35.25371Y46.58741
G01 X35.31189Y46.53469
G01 X35.36461Y46.47651
G01 X35.41138Y46.41346
G01 X35.45174Y46.34612
G01 X35.4853Y46.27515
G01 X35.51175Y46.20123
G01 X35.53083Y46.12507
G01 X35.54235Y46.04741
G01 X35.5462Y45.969
G01 X35.54235Y45.89059
G01 X35.53083Y45.81293
G01 X35.51175Y45.73677
G01 X35.4853Y45.66285
G01 X35.45174Y45.59188
G01 X35.41138Y45.52454
G01 X35.36461Y45.46149
G01 X35.31189Y45.40331
G01 X35.25371Y45.35059
G01 X35.19066Y45.30382
G01 X35.12332Y45.26346
G01 X35.05235Y45.2299
G01 X34.97843Y45.20345
G01 X34.90227Y45.18437
G01 X34.82461Y45.17285
G01 X34.7462Y45.169
G01 X34.66779Y45.17285
G01 X34.66779Y45.17285
M5
G01 X15.97154Y28.71252
M3
G01 X16.00703Y28.7293
G01 X16.04399Y28.74253
G01 X16.08206Y28.75206
G01 X16.12089Y28.75782
G01 X16.1601Y28.75975
G01 X16.65328Y28.75975
G01 X16.67992Y28.80421
G01 X16.72669Y28.86726
G01 X16.77941Y28.92544
G01 X16.83759Y28.97816
G01 X16.90064Y29.02493
G01 X16.96798Y29.06529
G01 X17.03895Y29.09885
G01 X17.11287Y29.1253
G01 X17.18903Y29.14438
G01 X17.26669Y29.1559
G01 X17.3451Y29.15975
G01 X17.42351Y29.1559
G01 X17.50117Y29.14438
G01 X17.57733Y29.1253
G01 X17.65125Y29.09885
G01 X17.72222Y29.06529
G01 X17.78956Y29.02493
G01 X17.85261Y28.97816
G01 X17.91079Y28.92544
G01 X17.96351Y28.86726
G01 X18.01028Y28.80421
G01 X18.05064Y28.73687
G01 X18.0842Y28.6659
G01 X18.11065Y28.59198
G01 X18.12973Y28.51582
G01 X18.14125Y28.43816
G01 X18.1451Y28.35975
G01 X18.14125Y28.28134
G01 X18.12973Y28.20368
G01 X18.11065Y28.12752
G01 X18.0842Y28.0536
G01 X18.05064Y27.98263
G01 X18.01028Y27.91529
G01 X17.96351Y27.85224
G01 X17.91079Y27.79406
G01 X17.85261Y27.74134
G01 X17.78956Y27.69457
G01 X17.72222Y27.65421
G01 X17.65125Y27.62065
G01 X17.57733Y27.5942
G01 X17.50117Y27.57512
G01 X17.42351Y27.5636
G01 X17.3451Y27.55975
G01 X17.26669Y27.5636
G01 X17.18903Y27.57512
G01 X17.11287Y27.5942
G01 X17.03895Y27.62065
G01 X16.96798Y27.65421
G01 X16.90064Y27.69457
G01 X16.83759Y27.74134
G01 X16.77941Y27.79406
G01 X16.72669Y27.85224
G01 X16.67992Y27.91529
G01 X16.65328Y27.95975
G01 X16.32579Y27.95975
G01 X14.14213Y25.7761
G01 X14.15473Y25.72582
G01 X14.16625Y25.64816
G01 X14.1701Y25.56975
G01 X14.16625Y25.49134
G01 X14.15473Y25.41368
G01 X14.13565Y25.33752
G01 X14.1092Y25.2636
G01 X14.07564Y25.19263
G01 X14.03528Y25.12529
G01 X13.98851Y25.06224
G01 X13.93579Y25.00406
G01 X13.87761Y24.95134
G01 X13.81456Y24.90457
G01 X13.7701Y24.87793
G01 X13.7701Y23.51544
G01 X13.89079Y23.39475
G01 X15.2776Y23.39475
G01 X15.2776Y21.39475
G01 X13.3726Y21.39475
G01 X13.3726Y22.78156
G01 X13.08726Y23.06691
G01 X13.0609Y23.09599
G01 X13.03751Y23.12752
G01 X13.01733Y23.16119
G01 X13.00055Y23.19668
G01 X12.98732Y23.23364
G01 X12.97779Y23.27171
G01 X12.97203Y23.31054
G01 X12.9701Y23.34975
G01 X12.9701Y24.87793
G01 X12.92564Y24.90457
G01 X12.86259Y24.95134
G01 X12.80441Y25.00406
G01 X12.75169Y25.06224
G01 X12.70492Y25.12529
G01 X12.66456Y25.19263
G01 X12.631Y25.2636
G01 X12.60455Y25.33752
G01 X12.58547Y25.41368
G01 X12.57395Y25.49134
G01 X12.5701Y25.56975
G01 X12.57395Y25.64816
G01 X12.58547Y25.72582
G01 X12.60455Y25.80198
G01 X12.631Y25.8759
G01 X12.66456Y25.94687
G01 X12.70492Y26.01421
G01 X12.75169Y26.07726
G01 X12.80441Y26.13544
G01 X12.86259Y26.18816
G01 X12.92564Y26.23493
G01 X12.99298Y26.27529
G01 X13.06395Y26.30885
G01 X13.13787Y26.3353
G01 X13.21403Y26.35438
G01 X13.29169Y26.3659
G01 X13.3701Y26.36975
G01 X13.44851Y26.3659
G01 X13.52617Y26.35438
G01 X13.57645Y26.34178
G01 X15.87726Y28.64259
G01 X15.90634Y28.66895
G01 X15.93787Y28.69234
G01 X15.97154Y28.71252
G01 X15.97154Y28.71252
M5
G01 X52.24985Y6.23966
M3
G01 X52.05684Y5.83158
G01 X51.82476Y5.44438
G01 X51.55585Y5.08179
G01 X51.25269Y4.74731
G01 X50.91821Y4.44415
G01 X50.55562Y4.17524
G01 X50.16842Y3.94316
G01 X49.76034Y3.75015
G01 X49.33531Y3.59807
G01 X48.89742Y3.48839
G01 X48.45088Y3.42215
G01 X48.0Y3.4
G01 X47.54912Y3.42215
G01 X47.10258Y3.48839
G01 X46.66469Y3.59807
G01 X46.23966Y3.75015
G01 X45.83158Y3.94316
G01 X45.44438Y4.17524
G01 X45.08179Y4.44415
G01 X44.74731Y4.74731
G01 X44.44415Y5.08179
G01 X44.17524Y5.44438
G01 X43.94316Y5.83158
G01 X43.75015Y6.23966
G01 X43.59807Y6.66469
G01 X43.48839Y7.10258
G01 X43.42215Y7.54912
G01 X43.4Y8.0
G01 X43.42215Y8.45088
G01 X43.48839Y8.89742
G01 X43.59807Y9.33531
G01 X43.75015Y9.76034
G01 X43.94316Y10.16842
G01 X44.17524Y10.55562
G01 X44.44415Y10.91821
G01 X44.74731Y11.25269
G01 X45.08179Y11.55585
G01 X45.44438Y11.82476
G01 X45.83158Y12.05684
G01 X46.23966Y12.24985
G01 X46.66469Y12.40193
G01 X47.10258Y12.51161
G01 X47.54912Y12.57785
G01 X48.0Y12.6
G01 X48.45088Y12.57785
G01 X48.89742Y12.51161
G01 X49.33531Y12.40193
G01 X49.76034Y12.24985
G01 X50.16842Y12.05684
G01 X50.55562Y11.82476
G01 X50.91821Y11.55585
G01 X51.25269Y11.25269
G01 X51.55585Y10.91821
G01 X51.82476Y10.55562
G01 X52.05684Y10.16842
G01 X52.24985Y9.76034
G01 X52.40193Y9.33531
G01 X52.51161Y8.89742
G01 X52.57785Y8.45088
G01 X52.6Y8.0
G01 X52.57785Y7.54912
G01 X52.51161Y7.10258
G01 X52.40193Y6.66469
G01 X52.24985Y6.23966
G01 X52.24985Y6.23966
M5
G01 X20.31835Y63.28576
M3
G01 X20.25181Y63.25429
G01 X20.18251Y63.22949
G01 X20.11112Y63.21161
G01 X20.03831Y63.20081
G01 X19.9648Y63.1972
G01 X19.89129Y63.20081
G01 X19.81848Y63.21161
G01 X19.74709Y63.22949
G01 X19.67779Y63.25429
G01 X19.61125Y63.28576
G01 X19.54812Y63.3236
G01 X19.48901Y63.36744
G01 X19.43447Y63.41687
G01 X19.38504Y63.47141
G01 X19.3412Y63.53052
G01 X19.30336Y63.59365
G01 X19.27189Y63.66019
G01 X19.24709Y63.72949
G01 X19.22921Y63.80088
G01 X19.21841Y63.87369
G01 X19.2148Y63.9472
G01 X19.21841Y64.02071
G01 X19.22921Y64.09352
G01 X19.24709Y64.16491
G01 X19.27189Y64.23421
G01 X19.30336Y64.30075
G01 X19.3412Y64.36388
G01 X19.38504Y64.42299
G01 X19.43447Y64.47753
G01 X19.48901Y64.52696
G01 X19.54812Y64.5708
G01 X19.61125Y64.60864
G01 X19.67779Y64.64011
G01 X19.74709Y64.66491
G01 X19.81848Y64.68279
G01 X19.89129Y64.69359
G01 X19.9648Y64.6972
G01 X20.03831Y64.69359
G01 X20.11112Y64.68279
G01 X20.18251Y64.66491
G01 X20.25181Y64.64011
G01 X20.31835Y64.60864
G01 X20.38148Y64.5708
G01 X20.44059Y64.52696
G01 X20.49513Y64.47753
G01 X20.54456Y64.42299
G01 X20.5884Y64.36388
G01 X20.5984Y64.3472
G01 X20.7148Y64.3472
G01 X20.75401Y64.34527
G01 X20.79284Y64.33951
G01 X20.83091Y64.32998
G01 X20.86787Y64.31675
G01 X20.90336Y64.29997
G01 X20.93703Y64.27979
G01 X20.96856Y64.2564
G01 X20.99764Y64.23004
G01 X23.95764Y61.27004
G01 X23.984Y61.24096
G01 X24.00739Y61.20943
G01 X24.02757Y61.17576
G01 X24.04435Y61.14027
G01 X24.05758Y61.10331
G01 X24.06711Y61.06524
G01 X24.07287Y61.02641
G01 X24.0748Y60.9872
G01 X24.0748Y59.85402
G01 X24.11926Y59.82738
G01 X24.18231Y59.78061
G01 X24.24049Y59.72789
G01 X24.29321Y59.66971
G01 X24.33998Y59.60666
G01 X24.38034Y59.53932
G01 X24.4139Y59.46835
G01 X24.44035Y59.39443
G01 X24.45943Y59.31827
G01 X24.47095Y59.24061
G01 X24.4748Y59.1622
G01 X24.47095Y59.08379
G01 X24.45943Y59.00613
G01 X24.44035Y58.92997
G01 X24.4139Y58.85605
G01 X24.38034Y58.78508
G01 X24.33998Y58.71774
G01 X24.29321Y58.65469
G01 X24.24049Y58.59651
G01 X24.18231Y58.54379
G01 X24.11926Y58.49702
G01 X24.05192Y58.45666
G01 X23.98095Y58.4231
G01 X23.90703Y58.39665
G01 X23.83087Y58.37757
G01 X23.75321Y58.36605
G01 X23.6748Y58.3622
G01 X23.59639Y58.36605
G01 X23.51873Y58.37757
G01 X23.44257Y58.39665
G01 X23.36865Y58.4231
G01 X23.29768Y58.45666
G01 X23.23034Y58.49702
G01 X23.16729Y58.54379
G01 X23.10911Y58.59651
G01 X23.05639Y58.65469
G01 X23.00962Y58.71774
G01 X22.96926Y58.78508
G01 X22.9357Y58.85605
G01 X22.90925Y58.92997
G01 X22.89017Y59.00613
G01 X22.87865Y59.08379
G01 X22.8748Y59.1622
G01 X22.87865Y59.24061
G01 X22.89017Y59.31827
G01 X22.90925Y59.39443
G01 X22.9357Y59.46835
G01 X22.96926Y59.53932
G01 X23.00962Y59.60666
G01 X23.05639Y59.66971
G01 X23.10911Y59.72789
G01 X23.16729Y59.78061
G01 X23.23034Y59.82738
G01 X23.2748Y59.85402
G01 X23.2748Y60.82151
G01 X20.57877Y63.51754
G01 X20.54456Y63.47141
G01 X20.49513Y63.41687
G01 X20.44059Y63.36744
G01 X20.38148Y63.3236
G01 X20.31835Y63.28576
G01 X20.31835Y63.28576
M5
G01 X35.55895Y34.35079
M3
G01 X35.54743Y34.27313
G01 X35.53483Y34.22285
G01 X37.2328Y32.52489
G01 X37.2328Y32.5792
G01 X38.8328Y32.5792
G01 X38.8328Y30.9792
G01 X37.2328Y30.9792
G01 X37.2328Y31.42238
G01 X37.22424Y31.42643
G01 X37.19057Y31.44661
G01 X37.15904Y31.47
G01 X37.12996Y31.49636
G01 X34.96915Y33.65717
G01 X34.91887Y33.64457
G01 X34.84121Y33.63305
G01 X34.7628Y33.6292
G01 X34.68439Y33.63305
G01 X34.60673Y33.64457
G01 X34.53057Y33.66365
G01 X34.45665Y33.6901
G01 X34.38568Y33.72366
G01 X34.31834Y33.76402
G01 X34.25529Y33.81079
G01 X34.19711Y33.86351
G01 X34.14439Y33.92169
G01 X34.09762Y33.98474
G01 X34.05726Y34.05208
G01 X34.0237Y34.12305
G01 X33.99725Y34.19697
G01 X33.97817Y34.27313
G01 X33.96665Y34.35079
G01 X33.9628Y34.4292
G01 X33.96665Y34.50761
G01 X33.97817Y34.58527
G01 X33.99725Y34.66143
G01 X34.0237Y34.73535
G01 X34.05726Y34.80632
G01 X34.09762Y34.87366
G01 X34.14439Y34.93671
G01 X34.19711Y34.99489
G01 X34.25529Y35.04761
G01 X34.31834Y35.09438
G01 X34.38568Y35.13474
G01 X34.45665Y35.1683
G01 X34.53057Y35.19475
G01 X34.60673Y35.21383
G01 X34.68439Y35.22535
G01 X34.7628Y35.2292
G01 X34.84121Y35.22535
G01 X34.91887Y35.21383
G01 X34.99503Y35.19475
G01 X35.06895Y35.1683
G01 X35.13992Y35.13474
G01 X35.20726Y35.09438
G01 X35.27031Y35.04761
G01 X35.32849Y34.99489
